; WARNING: Cut is not within machine bounds of X[0,300], Y[0,400]

;    svg2gcode 3.2.3 (2025-09-20 13:12:19)
;    arguments: 
;      laser_power: 850,
;      movement_speed: 1000,
;      pixel_size: 0.1,
;      maximum_image_laser_power: 300,
;      image_movement_speed: 800,
;      fan: False,
;      rapid_move: 10,
;      showimage: False,
;      x_axis_maximum_travel: 300,
;      y_axis_maximum_travel: 400,
;      image_noise: 0,
;      pass_depth: 0.0,
;      laser_mode: dynamic,
;      splitfile: False,
;      pathcut: False,
;      nofill: False,
;      image_poweroffset: 0,
;      image_overscan: 0,
;      image_showoverscan: False
;    Boundingbox: (X-0.0,Y0.0:X347.06,Y474.91)
;    boundingbox center: (X173.531993,Y237.456570)
;    GRBL 1.1, unit=mm, absolute coordinates

; Machine settings:
;    rapid movement,
;    XY plane,
;    cutter compensation off,
;    coordinate system 1,
;    move 'unit'/min
G0 G17 G40 G54 G94

G21
G90
; pass #1

; border: ''

; delta: 0
M5
G0 X198.500000 Y468
; Cut at F1000 mm/min, power S850
M4
G1 X199.326477 Y467.573677 S850 F1000
G1 X200.169527 Y467.091936
G1 X201.034737 Y466.600605
G1 X201.927691 Y466.145510
G1 X202.690582 Y465.829335
G1 X203.340493 Y465.628732
G1 X204 Y465.500000
G1 X204.320233 Y464.576714
G1 X204.689541 Y463.705129
G1 X205.105741 Y462.879098
G1 X205.566647 Y462.092472
G1 X206.070075 Y461.339103
G1 X206.613842 Y460.612843
G1 X207.195763 Y459.907543
G1 X207.813653 Y459.217055
G1 X208.465329 Y458.535232
G1 X208.500000 Y458.500000
G1 X208.824220 Y458.224302
G1 X209.169187 Y457.999886
G1 X209.500494 Y457.814831
G1 X209.783732 Y457.657219
G1 X209.957067 Y457.539197
G1 X210 Y457.500000
G1 X210.714547 Y456.729177
G1 X211.439009 Y455.898771
G1 X212.169959 Y455.041027
G1 X212.903968 Y454.188188
G1 X213.637609 Y453.372499
G1 X214.301353 Y452.690334
G1 X214.500000 Y452.500000
G1 X215.388924 Y451.696269
G1 X216.345222 Y450.881527
G1 X217.350490 Y450.059267
G1 X218.386326 Y449.232983
G1 X219.434328 Y448.406168
G1 X220.579216 Y447.500227
G1 X221.692061 Y446.602520
G1 X222.748370 Y445.717697
G1 X223.638979 Y444.928405
G1 X224.375025 Y444.226381
G1 X224.915000 Y443.665000
G1 X225.526851 Y442.938490
G1 X226.093500 Y442.155992
G1 X226.623305 Y441.329600
G1 X227.124621 Y440.471411
G1 X227.605808 Y439.593518
G1 X228.075222 Y438.708018
G1 X228.587954 Y437.739616
G1 X229.107676 Y436.792744
G1 X229.645512 Y435.883499
G1 X229.980000 Y435.365000
G1 X231.160176 Y433.622027
G1 X232.385523 Y431.835784
G1 X233.639891 Y430.009120
G1 X234.907132 Y428.144883
G1 X236.171096 Y426.245921
G1 X237.415634 Y424.315084
G1 X238.624597 Y422.355218
G1 X239.781837 Y420.369173
G1 X240.871203 Y418.359797
G1 X241.789049 Y416.515242
G1 X242.552987 Y414.825485
G1 X243.181304 Y413.280089
G1 X243.739523 Y411.727130
G1 X244.180404 Y410.309802
G1 X244.370000 Y409.620000
G1 X244.607750 Y408.561971
G1 X244.787119 Y407.465161
G1 X244.922589 Y406.338390
G1 X245.028638 Y405.190474
G1 X245.119749 Y404.030231
G1 X245.210403 Y402.866480
G1 X245.326875 Y401.592825
G1 X245.479590 Y400.337332
G1 X245.635000 Y399.385000
G1 X246.074775 Y397.262835
G1 X246.569784 Y395.155685
G1 X247.081209 Y393.047433
G1 X247.570231 Y390.921960
G1 X247.962691 Y388.961203
G1 X248.228115 Y387.311337
G1 X248.408282 Y385.782197
G1 X248.490000 Y384.740000
G1 X248.522083 Y384.160120
G1 X248.549714 Y383.513206
G1 X248.572006 Y382.808201
G1 X248.588074 Y382.054046
G1 X248.597033 Y381.259685
G1 X248.597997 Y380.434060
G1 X248.590081 Y379.586112
G1 X248.572399 Y378.724783
G1 X248.544066 Y377.859017
G1 X248.504197 Y376.997755
G1 X248.451905 Y376.149940
G1 X248.386305 Y375.324514
G1 X248.306513 Y374.530419
G1 X248.211641 Y373.776596
G1 X248.100806 Y373.071990
G1 X247.973121 Y372.425541
G1 X247.827701 Y371.846192
G1 X247.725000 Y371.515000
G1 X247.679536 Y371.421597
G1 X247.590916 Y371.279657
G1 X247.463333 Y371.094181
G1 X247.300981 Y370.870170
G1 X247.108052 Y370.612626
G1 X246.888740 Y370.326550
G1 X246.647237 Y370.016943
G1 X246.387737 Y369.688807
G1 X246.114432 Y369.347143
G1 X245.831516 Y368.996953
G1 X245.543181 Y368.643238
G1 X245.224759 Y368.256049
G1 X244.879443 Y367.840150
G1 X244.546514 Y367.443327
G1 X244.233400 Y367.074440
G1 X243.947528 Y366.742351
G1 X243.696329 Y366.455919
G1 X243.487229 Y366.224005
G1 X243.339921 Y366.067937
G1 X243.255000 Y365.985000
G1 X242.493421 Y365.343583
G1 X241.683781 Y364.742650
G1 X240.836537 Y364.170421
G1 X239.962146 Y363.615113
G1 X239.071067 Y363.064946
G1 X238.173755 Y362.508137
G1 X237.280669 Y361.932905
G1 X236.402266 Y361.327468
G1 X235.549002 Y360.680045
G1 X234.731336 Y359.978855
G1 X233.995000 Y359.250000
G1 X233.674488 Y358.858240
G1 X233.382606 Y358.417604
G1 X233.107245 Y357.947297
G1 X232.836294 Y357.466522
G1 X232.528889 Y356.948501
G1 X232.196047 Y356.466613
G1 X231.857829 Y356.081397
G1 X231.755000 Y355.985000
G1 X231.354798 Y355.677250
G1 X230.909030 Y355.409667
G1 X230.431094 Y355.167202
G1 X229.934392 Y354.934807
G1 X229.432322 Y354.697434
G1 X228.938286 Y354.440035
G1 X228.465683 Y354.147561
G1 X228.250000 Y353.990000
G1 X227.936983 Y353.714609
G1 X227.611654 Y353.372435
G1 X227.281669 Y352.984446
G1 X226.954689 Y352.571612
G1 X226.638370 Y352.154903
G1 X226.340371 Y351.755286
G1 X226.068351 Y351.393732
G1 X225.829968 Y351.091210
G1 X225.663789 Y350.900654
G1 X225.540831 Y350.784798
G1 X225.490000 Y350.750000
G1 X225.213329 Y350.636093
G1 X224.895655 Y350.566748
G1 X224.550744 Y350.525708
G1 X224.192364 Y350.496713
G1 X223.834281 Y350.463505
G1 X223.490262 Y350.409825
G1 X223.174073 Y350.319415
G1 X222.899482 Y350.176015
G1 X222.713731 Y350.005950
G1 X222.573564 Y349.779410
G1 X222.535000 Y349.680000
G1 X222.470738 Y349.366810
G1 X222.475724 Y349.031173
G1 X222.543039 Y348.675906
G1 X222.665764 Y348.303822
G1 X222.836977 Y347.917738
G1 X223.049760 Y347.520466
G1 X223.297193 Y347.114824
G1 X223.572355 Y346.703625
G1 X223.868327 Y346.289685
G1 X224.178189 Y345.875819
G1 X224.495021 Y345.464841
G1 X224.843328 Y345.019460
G1 X225.182485 Y344.584728
G1 X225.503283 Y344.164390
G1 X225.796511 Y343.762194
G1 X226.052958 Y343.381885
G1 X226.263415 Y343.027211
G1 X226.270000 Y343.015000
G1 X226.777990 Y342.009567
G1 X227.252324 Y340.939450
G1 X227.677064 Y339.820156
G1 X228.036275 Y338.667190
G1 X228.292557 Y337.602866
G1 X228.457041 Y336.632073
G1 X228.546994 Y335.667251
G1 X228.556523 Y334.802687
G1 X228.499596 Y334.032813
G1 X228.465000 Y333.775000
G1 X228.441876 Y333.649670
G1 X228.399541 Y333.455042
G1 X228.340286 Y333.200397
G1 X228.266401 Y332.895017
G1 X228.180176 Y332.548182
G1 X228.083901 Y332.169173
G1 X227.979867 Y331.767273
G1 X227.870364 Y331.351761
G1 X227.757682 Y330.931919
G1 X227.632793 Y330.476169
G1 X227.509876 Y330.038762
G1 X227.391981 Y329.632053
G1 X227.282156 Y329.268395
G1 X227.183448 Y328.960139
G1 X227.098906 Y328.719641
G1 X227.036907 Y328.570197
G1 X226.994817 Y328.499602
G1 X226.990000 Y328.495000
G1 X226.907312 Y328.466582
G1 X226.767336 Y328.457763
G1 X226.584553 Y328.462892
G1 X226.373448 Y328.476314
G1 X226.148501 Y328.492376
G1 X225.902357 Y328.506349
G1 X225.676265 Y328.509152
G1 X225.500000 Y328.495000
G1 X225.466433 Y328.567467
G1 X225.440678 Y328.707825
G1 X225.421107 Y328.909804
G1 X225.406091 Y329.167135
G1 X225.394000 Y329.473549
G1 X225.383206 Y329.822777
G1 X225.372079 Y330.208550
G1 X225.358990 Y330.624600
G1 X225.342311 Y331.064657
G1 X225.320411 Y331.522451
G1 X225.291663 Y331.991715
G1 X225.254437 Y332.466179
G1 X225.207103 Y332.939575
G1 X225.148033 Y333.405632
G1 X225.075599 Y333.858082
G1 X224.988169 Y334.290657
G1 X224.884117 Y334.697087
G1 X224.761811 Y335.071102
G1 X224.619625 Y335.406435
G1 X224.455927 Y335.696816
G1 X224.269090 Y335.935976
G1 X224.057484 Y336.117647
G1 X223.819480 Y336.235558
G1 X223.553450 Y336.283441
G1 X223.285912 Y336.260928
G1 X222.992641 Y336.170650
G1 X222.672413 Y336.007897
G1 X222.356874 Y335.793084
G1 X222.017125 Y335.510943
G1 X222.005000 Y335.500000
G1 X222.028724 Y336.137434
G1 X222.110091 Y336.771220
G1 X222.226112 Y337.403028
G1 X222.353797 Y338.034527
G1 X222.480288 Y338.730810
G1 X222.562478 Y339.430960
G1 X222.573007 Y340.072684
G1 X222.509521 Y340.661839
G1 X222.495000 Y340.740000
G1 X222.396533 Y341.076713
G1 X222.251309 Y341.367342
G1 X222.072185 Y341.626323
G1 X221.872014 Y341.868090
G1 X221.663652 Y342.107080
G1 X221.440335 Y342.383989
G1 X221.239772 Y342.694216
G1 X221.079072 Y343.056976
G1 X220.988514 Y343.410086
G1 X220.950000 Y343.745000
G1 X220.962709 Y344.230438
G1 X221.037938 Y344.728238
G1 X221.151938 Y345.236494
G1 X221.280960 Y345.753297
G1 X221.401256 Y346.276740
G1 X221.489076 Y346.804915
G1 X221.520000 Y347.230000
G1 X221.529631 Y347.634059
G1 X221.542368 Y348.102119
G1 X221.557168 Y348.626995
G1 X221.572989 Y349.201502
G1 X221.588786 Y349.818452
G1 X221.603519 Y350.470661
G1 X221.616142 Y351.150943
G1 X221.625615 Y351.852111
G1 X221.630894 Y352.566980
G1 X221.630935 Y353.288365
G1 X221.623688 Y354.080837
G1 X221.607454 Y354.862933
G1 X221.580845 Y355.625089
G1 X221.542474 Y356.357740
G1 X221.490952 Y357.051323
G1 X221.424891 Y357.696273
G1 X221.342904 Y358.283025
G1 X221.243601 Y358.802015
G1 X221.137133 Y359.206975
G1 X221.014166 Y359.540844
G1 X220.940000 Y359.690000
G1 X220.712201 Y360.052758
G1 X220.476116 Y360.348172
G1 X220.232446 Y360.579560
G1 X219.981893 Y360.750236
G1 X219.725160 Y360.863516
G1 X219.462947 Y360.922715
G1 X219.195956 Y360.931150
G1 X218.924889 Y360.892136
G1 X218.650448 Y360.808988
G1 X218.373334 Y360.685023
G1 X218.094249 Y360.523555
G1 X217.813895 Y360.327900
G1 X217.532973 Y360.101375
G1 X217.252185 Y359.847294
G1 X216.972233 Y359.568974
G1 X216.693819 Y359.269729
G1 X216.417643 Y358.952876
G1 X216.144408 Y358.621730
G1 X215.874816 Y358.279607
G1 X215.609567 Y357.929823
G1 X215.323649 Y357.540168
G1 X215.017305 Y357.110741
G1 X214.720723 Y356.686165
G1 X214.435143 Y356.272313
G1 X214.161811 Y355.875060
G1 X213.901969 Y355.500279
G1 X213.656859 Y355.153844
G1 X213.427726 Y354.841630
G1 X213.215811 Y354.569509
G1 X213.022359 Y354.343356
G1 X212.848612 Y354.169044
G1 X212.700000 Y354.055000
G1 X212.295177 Y353.848909
G1 X211.871653 Y353.704060
G1 X211.434649 Y353.603278
G1 X210.989389 Y353.529390
G1 X210.541095 Y353.465221
G1 X210.050699 Y353.385363
G1 X209.569901 Y353.273625
G1 X209.135000 Y353.120000
G1 X208.494174 Y352.816433
G1 X207.822960 Y352.449532
G1 X207.123935 Y352.030267
G1 X206.399678 Y351.569605
G1 X205.652766 Y351.078513
G1 X204.885776 Y350.567961
G1 X204.101287 Y350.048916
G1 X203.301875 Y349.532345
G1 X202.490120 Y349.029217
G1 X201.668597 Y348.550500
G1 X200.839886 Y348.107162
G1 X200.006563 Y347.710171
G1 X199.171206 Y347.370494
G1 X198.960000 Y347.295000
G1 X198.234142 Y347.084158
G1 X197.466282 Y346.928945
G1 X196.668154 Y346.816991
G1 X195.851490 Y346.735929
G1 X195.028025 Y346.673390
G1 X194.209493 Y346.617006
G1 X193.407625 Y346.554408
G1 X192.634158 Y346.473229
G1 X191.900823 Y346.361100
G1 X191.219355 Y346.205652
G1 X190.654720 Y346.016339
G1 X190.194445 Y345.796480
G1 X190.035000 Y345.700000
G1 X189.888599 Y345.557961
G1 X189.770701 Y345.361072
G1 X189.667000 Y345.135560
G1 X189.563190 Y344.907654
G1 X189.444964 Y344.703583
G1 X189.298015 Y344.549575
G1 X189.150000 Y344.480000
G1 X188.994304 Y344.464541
G1 X188.773668 Y344.474950
G1 X188.495342 Y344.507548
G1 X188.166575 Y344.558651
G1 X187.794619 Y344.624578
G1 X187.386724 Y344.701647
G1 X186.950140 Y344.786177
G1 X186.492117 Y344.874486
G1 X186.019905 Y344.962891
G1 X185.540756 Y345.047712
G1 X185.014331 Y345.132480
G1 X184.497934 Y345.203555
G1 X184.001216 Y345.256037
G1 X183.533826 Y345.285025
G1 X183.105414 Y345.285619
G1 X182.725631 Y345.252918
G1 X182.404127 Y345.182023
G1 X182.170543 Y345.080304
G1 X182.000350 Y344.939287
G1 X181.906737 Y344.773890
G1 X181.876952 Y344.570207
G1 X181.909846 Y344.349489
G1 X182.004085 Y344.092765
G1 X182.163761 Y343.797957
G1 X182.369149 Y343.495152
G1 X182.635075 Y343.157594
G1 X182.770000 Y343.000000
G1 X183.438686 Y342.226138
G1 X184.052082 Y341.494151
G1 X184.620668 Y340.793148
G1 X185.154923 Y340.112239
G1 X185.665328 Y339.440532
G1 X186.162363 Y338.767135
G1 X186.656508 Y338.081159
G1 X187.158244 Y337.371712
G1 X187.678050 Y336.627902
G1 X188.226406 Y335.838839
G1 X188.785000 Y335.035000
G1 X189.044888 Y334.713698
G1 X189.367059 Y334.384154
G1 X189.726964 Y334.051859
G1 X190.100052 Y333.722305
G1 X190.496376 Y333.369514
G1 X190.846271 Y333.033993
G1 X191.077163 Y332.774935
G1 X191.224658 Y332.557466
G1 X191.260000 Y332.485000
G1 X191.333491 Y332.217576
G1 X191.340093 Y331.954941
G1 X191.303078 Y331.699288
G1 X191.245719 Y331.452810
G1 X191.191286 Y331.217701
G1 X191.163053 Y330.996156
G1 X191.175000 Y330.830000
G1 X191.281548 Y330.484742
G1 X191.440112 Y330.159661
G1 X191.617235 Y329.855939
G1 X191.779463 Y329.574758
G1 X191.893340 Y329.317302
G1 X191.925000 Y329.170000
G1 X191.909444 Y328.941090
G1 X191.831662 Y328.726112
G1 X191.709615 Y328.521790
G1 X191.561261 Y328.324848
G1 X191.404561 Y328.132008
G1 X191.243984 Y327.920714
G1 X191.118942 Y327.706058
G1 X191.053340 Y327.483682
G1 X191.055000 Y327.325000
G1 X191.090972 Y327.239674
G1 X191.177636 Y327.105242
G1 X191.307807 Y326.928077
G1 X191.474300 Y326.714549
G1 X191.669930 Y326.471031
G1 X191.887511 Y326.203894
G1 X192.119860 Y325.919509
G1 X192.359791 Y325.624247
G1 X192.600119 Y325.324482
G1 X192.856364 Y324.997141
G1 X193.094832 Y324.680540
G1 X193.305960 Y324.383159
G1 X193.480187 Y324.113479
G1 X193.607947 Y323.879980
G1 X193.615000 Y323.865000
G1 X193.768033 Y323.450648
G1 X193.865984 Y323.022197
G1 X193.932570 Y322.586455
G1 X193.991512 Y322.150229
G1 X194.075826 Y321.677945
G1 X194.211159 Y321.222375
G1 X194.383959 Y320.864926
G1 X194.475000 Y320.725000
G1 X194.638602 Y320.536530
G1 X194.867607 Y320.338121
G1 X195.154525 Y320.131791
G1 X195.491869 Y319.919556
G1 X195.872150 Y319.703433
G1 X196.287880 Y319.485439
G1 X196.731570 Y319.267591
G1 X197.195733 Y319.051905
G1 X197.672880 Y318.840400
G1 X198.155523 Y318.635091
G1 X198.683840 Y318.418816
G1 X199.199780 Y318.215164
G1 X199.693374 Y318.026819
G1 X200.154657 Y317.856467
G1 X200.573661 Y317.706791
G1 X200.940420 Y317.580476
G1 X201.230000 Y317.485000
G1 X201.594160 Y317.389690
G1 X202.019496 Y317.310830
G1 X202.479674 Y317.245832
G1 X202.948362 Y317.192107
G1 X203.399227 Y317.147066
G1 X203.805939 Y317.108120
G1 X204.115202 Y317.075827
G1 X204.329153 Y317.047347
G1 X204.455180 Y317.020911
G1 X204.500000 Y317
G1 X204.524751 Y316.940984
G1 X204.557022 Y316.811465
G1 X204.589865 Y316.626710
G1 X204.616333 Y316.401986
G1 X204.629478 Y316.152562
G1 X204.622353 Y315.893704
G1 X204.588010 Y315.640679
G1 X204.519502 Y315.408756
G1 X204.409880 Y315.213202
G1 X204.252199 Y315.069283
G1 X204.061301 Y314.996103
G1 X203.843915 Y314.987208
G1 X203.750000 Y315
G1 X203.399669 Y315.098788
G1 X203.043088 Y315.260553
G1 X202.679794 Y315.470146
G1 X202.309323 Y315.712421
G1 X201.931213 Y315.972230
G1 X201.545000 Y316.234427
G1 X201.150221 Y316.483863
G1 X200.746413 Y316.705391
G1 X200.333113 Y316.883865
G1 X199.909857 Y317.004136
G1 X199.516050 Y317.050222
G1 X199.113285 Y317.024307
G1 X199.010000 Y317.005000
G1 X198.961209 Y316.265270
G1 X198.955668 Y315.587197
G1 X198.994165 Y314.967339
G1 X199.077484 Y314.402257
G1 X199.206412 Y313.888508
G1 X199.381733 Y313.422651
G1 X199.604234 Y313.001246
G1 X199.874701 Y312.620851
G1 X200.193919 Y312.278025
G1 X200.562674 Y311.969326
G1 X200.981751 Y311.691315
G1 X201.451936 Y311.440549
G1 X201.974016 Y311.213588
G1 X202.548775 Y311.006990
G1 X203.177000 Y310.817314
G1 X203.859476 Y310.641119
G1 X203.885000 Y310.635000
G1 X204.361155 Y310.538304
G1 X204.897544 Y310.459100
G1 X205.485178 Y310.394823
G1 X206.115064 Y310.342910
G1 X206.778211 Y310.300797
G1 X207.465627 Y310.265922
G1 X208.168322 Y310.235719
G1 X208.877303 Y310.207627
G1 X209.653712 Y310.176103
G1 X210.414881 Y310.140618
G1 X211.148842 Y310.097760
G1 X211.843627 Y310.044117
G1 X212.487270 Y309.976277
G1 X213.067801 Y309.890829
G1 X213.530721 Y309.794996
G1 X213.922602 Y309.679227
G1 X214.209645 Y309.554526
G1 X214.245000 Y309.535000
G1 X214.316009 Y309.452530
G1 X214.344488 Y309.323796
G1 X214.344949 Y309.162469
G1 X214.331906 Y308.982223
G1 X214.319870 Y308.796729
G1 X214.323355 Y308.619659
G1 X214.356873 Y308.464685
G1 X214.434936 Y308.345479
G1 X214.556770 Y308.279654
G1 X214.719058 Y308.263912
G1 X214.916309 Y308.292766
G1 X215.167269 Y308.368720
G1 X215.447200 Y308.483520
G1 X215.505000 Y308.510000
G1 X215.495205 Y307.987915
G1 X215.427085 Y307.486464
G1 X215.330037 Y307.000588
G1 X215.233455 Y306.525225
G1 X215.166735 Y306.055315
G1 X215.159273 Y305.585797
G1 X215.218731 Y305.194463
G1 X215.339291 Y304.833533
G1 X215.505000 Y304.515000
G1 X215.370546 Y304.450211
G1 X215.176949 Y304.421947
G1 X214.930407 Y304.426575
G1 X214.637115 Y304.460460
G1 X214.303271 Y304.519968
G1 X213.935072 Y304.601463
G1 X213.538715 Y304.701313
G1 X213.120396 Y304.815882
G1 X212.686312 Y304.941536
G1 X212.242661 Y305.074641
G1 X211.795639 Y305.211563
G1 X211.307417 Y305.362247
G1 X210.784167 Y305.522480
G1 X210.286012 Y305.670688
G1 X209.823932 Y305.800433
G1 X209.408905 Y305.905276
G1 X209.051907 Y305.978778
G1 X208.786959 Y306.012984
G1 X208.755000 Y306.015000
G1 X208.340256 Y306.044687
G1 X208.032126 Y306.063604
G1 X207.789848 Y306.050252
G1 X207.626919 Y305.990091
G1 X207.526319 Y305.880155
G1 X207.474239 Y305.722867
G1 X207.459754 Y305.500538
G1 X207.479286 Y305.233491
G1 X207.510000 Y305.015000
G1 X208.273315 Y304.651100
G1 X209.075830 Y304.346055
G1 X209.910456 Y304.091425
G1 X210.770105 Y303.878767
G1 X211.647689 Y303.699640
G1 X212.536118 Y303.545601
G1 X213.428304 Y303.408209
G1 X214.317159 Y303.279021
G1 X215.282591 Y303.136316
G1 X216.225980 Y302.982088
G1 X217.137891 Y302.805102
G1 X218.008889 Y302.594119
G1 X218.650000 Y302.400000
G1 X218.938475 Y302.274522
G1 X219.173466 Y302.117137
G1 X219.362507 Y301.935951
G1 X219.513133 Y301.739069
G1 X219.632879 Y301.534596
G1 X219.729279 Y301.330638
G1 X219.809869 Y301.135302
G1 X219.882182 Y300.956691
G1 X219.953754 Y300.802912
G1 X220.032120 Y300.682070
G1 X220.120000 Y300.605000
G1 X220.362402 Y300.509208
G1 X220.623225 Y300.472177
G1 X220.893129 Y300.470891
G1 X221.162777 Y300.482336
G1 X221.447947 Y300.482159
G1 X221.709077 Y300.438905
G1 X221.897906 Y300.348863
G1 X222.042049 Y300.208768
G1 X222.145757 Y300.021969
G1 X222.219342 Y299.768477
G1 X222.256767 Y299.471940
G1 X222.263842 Y299.141359
G1 X222.260000 Y299.015000
G1 X218.101247 Y300.358290
G1 X216.482965 Y300.826875
G1 X215.133943 Y301.151749
G1 X213.896005 Y301.379010
G1 X212.759287 Y301.515513
G1 X211.715219 Y301.571280
G1 X210.659785 Y301.552704
G1 X210.000000 Y301.500000
G1 X209.938098 Y301.178624
G1 X209.929721 Y300.899157
G1 X209.968665 Y300.655910
G1 X210.048723 Y300.443195
G1 X210.163691 Y300.255321
G1 X210.307361 Y300.086601
G1 X210.473529 Y299.931344
G1 X210.655989 Y299.783862
G1 X210.848534 Y299.638465
G1 X211.064578 Y299.474147
G1 X211.277057 Y299.297896
G1 X211.477711 Y299.102141
G1 X211.658282 Y298.879308
G1 X211.810509 Y298.621825
G1 X211.926133 Y298.322121
G1 X211.960000 Y298.190000
G1 X211.981643 Y297.990540
G1 X211.951210 Y297.838079
G1 X211.878458 Y297.722398
G1 X211.773143 Y297.633276
G1 X211.645022 Y297.560492
G1 X211.503852 Y297.493826
G1 X211.359388 Y297.423058
G1 X211.221388 Y297.337967
G1 X211.099607 Y297.228333
G1 X211.003802 Y297.083934
G1 X210.943730 Y296.894552
G1 X210.929148 Y296.649965
G1 X210.963574 Y296.371108
G1 X210.990000 Y296.250000
G1 X211.037080 Y296.203411
G1 X211.144855 Y296.150457
G1 X211.295994 Y296.085771
G1 X211.473168 Y296.003987
G1 X211.659047 Y295.899741
G1 X211.836301 Y295.767667
G1 X211.987601 Y295.602398
G1 X212.095616 Y295.398569
G1 X212.141668 Y295.175295
G1 X212.129106 Y294.937424
G1 X212.054602 Y294.663191
G1 X211.995000 Y294.520000
G1 X211.458610 Y294.472683
G1 X210.984929 Y294.383684
G1 X210.571415 Y294.255193
G1 X210.215527 Y294.089402
G1 X209.914723 Y293.888501
G1 X209.666463 Y293.654681
G1 X209.468203 Y293.390132
G1 X209.317403 Y293.097046
G1 X209.211521 Y292.777613
G1 X209.148016 Y292.434023
G1 X209.124346 Y292.068468
G1 X209.137969 Y291.683138
G1 X209.186343 Y291.280224
G1 X209.266929 Y290.861917
G1 X209.377182 Y290.430407
G1 X209.514563 Y289.987885
G1 X209.676530 Y289.536542
G1 X209.860540 Y289.078568
G1 X210.064053 Y288.616155
G1 X210.284527 Y288.151492
G1 X210.519420 Y287.686772
G1 X210.766191 Y287.224183
G1 X211.022298 Y286.765918
G1 X211.285200 Y286.314167
G1 X211.552354 Y285.871120
G1 X211.821221 Y285.438969
G1 X212.089257 Y285.019904
G1 X212.353921 Y284.616115
G1 X212.612673 Y284.229794
G1 X212.862969 Y283.863131
G1 X213.102269 Y283.518317
G1 X213.328032 Y283.197542
G1 X213.537715 Y282.902998
G1 X213.728777 Y282.636875
G1 X213.795000 Y282.545000
G1 X217.591971 Y277.212852
G1 X221.353051 Y271.851535
G1 X225.109527 Y266.494989
G1 X228.280000 Y262.030000
G1 X228.749790 Y261.405505
G1 X229.279624 Y260.751186
G1 X229.857462 Y260.072403
G1 X230.471267 Y259.374519
G1 X231.109002 Y258.662895
G1 X231.758629 Y257.942892
G1 X232.408111 Y257.219873
G1 X233.108005 Y256.427466
G1 X233.777134 Y255.645032
G1 X234.399478 Y254.879708
G1 X234.959012 Y254.138629
G1 X235.399695 Y253.491966
G1 X235.715000 Y252.965000
G1 X235.988516 Y252.416488
G1 X236.249129 Y251.799722
G1 X236.499191 Y251.129475
G1 X236.741054 Y250.420521
G1 X236.977068 Y249.687631
G1 X237.209587 Y248.945578
G1 X237.464126 Y248.136367
G1 X237.720411 Y247.353607
G1 X237.981572 Y246.616959
G1 X238.250738 Y245.946086
G1 X238.390000 Y245.640000
G1 X239.189275 Y244.038848
G1 X240.051711 Y242.421812
G1 X240.962695 Y240.790259
G1 X241.907616 Y239.145561
G1 X242.871860 Y237.489087
G1 X243.840814 Y235.822208
G1 X244.799866 Y234.146293
G1 X245.734403 Y232.462713
G1 X246.629811 Y230.772836
G1 X247.471479 Y229.078034
G1 X248.210000 Y227.460000
G1 X248.483333 Y226.769303
G1 X248.736429 Y226.023638
G1 X248.974709 Y225.241346
G1 X249.203593 Y224.440766
G1 X249.428503 Y223.640238
G1 X249.654858 Y222.858104
G1 X249.888080 Y222.112702
G1 X250.133589 Y221.422374
G1 X250.372003 Y220.858026
G1 X250.604870 Y220.409227
G1 X250.856258 Y220.032311
G1 X251.103438 Y219.760749
G1 X251.345559 Y219.579395
G1 X251.606047 Y219.466481
G1 X251.886628 Y219.427850
G1 X252.160593 Y219.462109
G1 X252.453890 Y219.566980
G1 X252.738391 Y219.727285
G1 X253.040916 Y219.952874
G1 X253.362440 Y220.247046
G1 X253.703938 Y220.613098
G1 X254.066385 Y221.054329
G1 X254.414882 Y221.523463
G1 X254.782231 Y222.059933
G1 X255.169163 Y222.666217
G1 X255.515000 Y223.240000
G1 X255.685840 Y223.532856
G1 X255.890718 Y223.888557
G1 X256.126430 Y224.301672
G1 X256.389770 Y224.766769
G1 X256.677534 Y225.278415
G1 X256.986518 Y225.831178
G1 X257.313517 Y226.419626
G1 X257.655326 Y227.038328
G1 X258.008741 Y227.681851
G1 X258.370558 Y228.344763
G1 X258.737572 Y229.021632
G1 X259.106578 Y229.707026
G1 X259.510960 Y230.464323
G1 X259.948996 Y231.293042
G1 X260.374420 Y232.107918
G1 X260.781553 Y232.899327
G1 X261.164719 Y233.657646
G1 X261.518241 Y234.373252
G1 X261.836441 Y235.036521
G1 X262.113644 Y235.637831
G1 X262.325292 Y236.122612
G1 X262.480636 Y236.505901
G1 X262.597370 Y236.828891
G1 X262.667292 Y237.065621
G1 X262.680000 Y237.120000
G1 X262.766801 Y237.675650
G1 X262.799622 Y238.269996
G1 X262.786827 Y238.896815
G1 X262.736782 Y239.549881
G1 X262.657850 Y240.222969
G1 X262.558397 Y240.909853
G1 X262.446786 Y241.604310
G1 X262.331383 Y242.300113
G1 X262.210041 Y243.059622
G1 X262.105365 Y243.804943
G1 X262.028487 Y244.527789
G1 X261.990540 Y245.219877
G1 X261.995000 Y245.730000
G1 X262.074638 Y246.916730
G1 X262.204890 Y248.059838
G1 X262.377108 Y249.167734
G1 X262.582640 Y250.248829
G1 X262.812836 Y251.311532
G1 X263.059047 Y252.364253
G1 X263.312622 Y253.415403
G1 X263.589736 Y254.579890
G1 X263.853780 Y255.763846
G1 X264.093242 Y256.978464
G1 X264.296609 Y258.234937
G1 X264.452365 Y259.544460
G1 X264.542960 Y260.790390
G1 X264.575640 Y261.976204
G1 X264.558635 Y263.103641
G1 X264.495000 Y264.245000
G1 X264.035776 Y270.659004
G1 X263.566586 Y277.016423
G1 X263.192593 Y281.330025
G1 X262.785987 Y285.233709
G1 X262.385678 Y288.448464
G1 X261.913760 Y291.653979
G1 X261.412029 Y294.560933
G1 X260.887599 Y297.198383
G1 X260.290780 Y299.831448
G1 X259.679432 Y302.221828
G1 X258.997067 Y304.609503
G1 X258.240000 Y306.990000
G1 X257.971593 Y307.671524
G1 X257.642218 Y308.351523
G1 X257.279893 Y309.034367
G1 X256.912636 Y309.724428
G1 X256.568465 Y310.426077
G1 X256.275399 Y311.143685
G1 X256.076900 Y311.813583
G1 X255.995000 Y312.245000
G1 X256.334516 Y312.324834
G1 X256.662760 Y312.334952
G1 X256.981444 Y312.289344
G1 X257.292283 Y312.202004
G1 X257.596991 Y312.086923
G1 X257.897281 Y311.958093
G1 X258.224544 Y311.817202
G1 X258.550817 Y311.695229
G1 X258.878382 Y311.610798
G1 X259.209519 Y311.582533
G1 X259.515572 Y311.621249
G1 X259.799443 Y311.721855
G1 X260.090016 Y311.895620
G1 X260.361073 Y312.125919
G1 X260.540000 Y312.315000
G1 X260.272270 Y312.929634
G1 X260.024794 Y313.612477
G1 X259.793921 Y314.354369
G1 X259.576000 Y315.146147
G1 X259.367381 Y315.978649
G1 X259.164413 Y316.842713
G1 X258.963445 Y317.729179
G1 X258.760826 Y318.628882
G1 X258.552906 Y319.532663
G1 X258.313713 Y320.520596
G1 X258.058829 Y321.490182
G1 X257.783394 Y322.429225
G1 X257.482549 Y323.325533
G1 X257.151436 Y324.166909
G1 X256.820068 Y324.873869
G1 X256.456017 Y325.516191
G1 X256.093630 Y326.036321
G1 X255.698472 Y326.488576
G1 X255.308492 Y326.835026
G1 X255.180000 Y326.930000
G1 X254.998977 Y327.045848
G1 X254.755484 Y327.183192
G1 X254.456127 Y327.338769
G1 X254.107517 Y327.509314
G1 X253.716262 Y327.691562
G1 X253.288972 Y327.882249
G1 X252.832254 Y328.078112
G1 X252.352718 Y328.275885
G1 X251.856972 Y328.472305
G1 X251.351626 Y328.664106
G1 X250.843288 Y328.848025
G1 X250.338568 Y329.020798
G1 X249.844073 Y329.179160
G1 X249.366414 Y329.319846
G1 X248.912198 Y329.439593
G1 X248.488034 Y329.535136
G1 X248.100533 Y329.603211
G1 X247.756301 Y329.640553
G1 X247.461948 Y329.643899
G1 X247.224084 Y329.609983
G1 X247.049316 Y329.535542
G1 X247.005000 Y329.500000
G1 X246.929466 Y329.107970
G1 X246.917886 Y328.754697
G1 X246.962505 Y328.436587
G1 X247.055565 Y328.150049
G1 X247.189311 Y327.891490
G1 X247.355986 Y327.657317
G1 X247.547834 Y327.443939
G1 X247.757100 Y327.247761
G1 X247.976026 Y327.065193
G1 X248.196856 Y326.892641
G1 X248.411835 Y326.726514
G1 X248.613205 Y326.563218
G1 X248.793211 Y326.399161
G1 X248.944097 Y326.230751
G1 X249.015000 Y326.130000
G1 X249.350044 Y325.591198
G1 X249.717359 Y324.995317
G1 X250.110960 Y324.351345
G1 X250.524864 Y323.668267
G1 X250.953086 Y322.955068
G1 X251.389642 Y322.220735
G1 X251.828548 Y321.474255
G1 X252.306916 Y320.649820
G1 X252.772922 Y319.833519
G1 X253.218599 Y319.037313
G1 X253.635985 Y318.273163
G1 X254.017112 Y317.553027
G1 X254.354017 Y316.888868
G1 X254.610000 Y316.355000
G1 X254.723186 Y316.113077
G1 X254.853029 Y315.819259
G1 X254.969488 Y315.499490
G1 X255.042517 Y315.179712
G1 X255.045940 Y314.910827
G1 X254.986890 Y314.718643
G1 X254.873118 Y314.577443
G1 X254.760000 Y314.505000
G1 X254.223418 Y315.251157
G1 X253.633198 Y315.961242
G1 X252.996824 Y316.639274
G1 X252.321783 Y317.289271
G1 X251.615558 Y317.915252
G1 X250.885636 Y318.521236
G1 X250.139501 Y319.111241
G1 X249.384638 Y319.689285
G1 X248.628533 Y320.259387
G1 X247.804315 Y320.882123
G1 X246.997614 Y321.505460
G1 X246.218392 Y322.134747
G1 X245.476611 Y322.775332
G1 X244.782235 Y323.432565
G1 X244.735000 Y323.480000
G1 X244.481548 Y323.766126
G1 X244.217502 Y324.113784
G1 X243.943714 Y324.507303
G1 X243.661034 Y324.931009
G1 X243.370312 Y325.369231
G1 X243.072399 Y325.806297
G1 X242.768145 Y326.226534
G1 X242.458403 Y326.614270
G1 X242.144021 Y326.953834
G1 X241.825851 Y327.229551
G1 X241.534033 Y327.411613
G1 X241.267176 Y327.510189
G1 X240.999320 Y327.535875
G1 X240.775000 Y327.495000
G1 X240.671360 Y327.429140
G1 X240.554052 Y327.296567
G1 X240.424253 Y327.102446
G1 X240.283138 Y326.851941
G1 X240.131881 Y326.550215
G1 X239.971660 Y326.202433
G1 X239.803650 Y325.813757
G1 X239.629025 Y325.389353
G1 X239.448962 Y324.934384
G1 X239.264636 Y324.454013
G1 X239.077224 Y323.953405
G1 X238.887899 Y323.437724
G1 X238.697839 Y322.912133
G1 X238.489326 Y322.328700
G1 X238.262443 Y321.688494
G1 X238.018288 Y320.996767
G1 X237.782494 Y320.329940
G1 X237.557834 Y319.700191
G1 X237.347080 Y319.119694
G1 X237.153003 Y318.600627
G1 X236.993375 Y318.192300
G1 X236.851903 Y317.853952
G1 X236.740800 Y317.614786
G1 X236.710000 Y317.555000
G1 X236.371649 Y316.981312
G1 X235.962096 Y316.399547
G1 X235.487432 Y315.814057
G1 X234.953745 Y315.229196
G1 X234.367127 Y314.649317
G1 X233.733667 Y314.078772
G1 X233.059456 Y313.521915
G1 X232.350584 Y312.983098
G1 X231.613141 Y312.466675
G1 X230.853216 Y311.976999
G1 X230.076901 Y311.518422
G1 X229.290284 Y311.095298
G1 X228.499457 Y310.711980
G1 X227.710510 Y310.372820
G1 X226.929532 Y310.082173
G1 X226.162613 Y309.844390
G1 X225.415845 Y309.663825
G1 X224.695316 Y309.544831
G1 X224.007117 Y309.491760
G1 X223.740000 Y309.490000
G1 X223.306962 Y309.529932
G1 X222.851026 Y309.627430
G1 X222.374507 Y309.767726
G1 X221.879721 Y309.936048
G1 X221.368984 Y310.117627
G1 X220.844612 Y310.297693
G1 X220.308920 Y310.461477
G1 X219.764225 Y310.594207
G1 X219.212842 Y310.681115
G1 X218.657086 Y310.707431
G1 X218.150009 Y310.666345
G1 X217.642973 Y310.551879
G1 X217.515000 Y310.510000
G1 X217.474067 Y310.808628
G1 X217.460418 Y311.042534
G1 X217.473434 Y311.219747
G1 X217.512500 Y311.348294
G1 X217.576996 Y311.436205
G1 X217.666306 Y311.491507
G1 X217.779812 Y311.522228
G1 X217.916896 Y311.536397
G1 X218.076941 Y311.542042
G1 X218.259330 Y311.547191
G1 X218.463444 Y311.559872
G1 X218.688666 Y311.588115
G1 X218.700000 Y311.590000
G1 X219.751523 Y311.771948
G1 X220.867604 Y311.973788
G1 X222.025522 Y312.199019
G1 X223.202557 Y312.451140
G1 X224.375992 Y312.733651
G1 X225.523105 Y313.050051
G1 X226.621178 Y313.403841
G1 X227.557752 Y313.760857
G1 X227.870000 Y313.895000
G1 X228.237552 Y314.100986
G1 X228.587002 Y314.366128
G1 X228.925446 Y314.666492
G1 X229.259977 Y314.978145
G1 X229.631910 Y315.305437
G1 X230.017134 Y315.585572
G1 X230.352247 Y315.758846
G1 X230.495000 Y315.810000
G1 X230.870719 Y315.889406
G1 X231.239457 Y315.909503
G1 X231.595559 Y315.887628
G1 X231.933374 Y315.841117
G1 X232.247247 Y315.787304
G1 X232.531526 Y315.743527
G1 X232.780559 Y315.727120
G1 X232.988692 Y315.755419
G1 X233.030000 Y315.770000
G1 X233.302038 Y315.908007
G1 X233.507750 Y316.070907
G1 X233.654775 Y316.255246
G1 X233.750753 Y316.457566
G1 X233.803321 Y316.674413
G1 X233.820120 Y316.902330
G1 X233.808787 Y317.137863
G1 X233.776962 Y317.377555
G1 X233.732283 Y317.617951
G1 X233.682390 Y317.855594
G1 X233.630602 Y318.109699
G1 X233.591914 Y318.351694
G1 X233.576495 Y318.576978
G1 X233.594511 Y318.780952
G1 X233.656130 Y318.959017
G1 X233.705000 Y319.035000
G1 X233.857222 Y319.169103
G1 X234.073874 Y319.277959
G1 X234.342296 Y319.369597
G1 X234.649829 Y319.452045
G1 X234.983813 Y319.533331
G1 X235.331586 Y319.621483
G1 X235.680491 Y319.724530
G1 X236.017866 Y319.850499
G1 X236.331052 Y320.007420
G1 X236.607389 Y320.203320
G1 X236.834217 Y320.446228
G1 X236.986809 Y320.714601
G1 X237.005000 Y320.760000
G1 X236.656850 Y320.962547
G1 X236.374912 Y321.156661
G1 X236.154860 Y321.343050
G1 X235.992373 Y321.522423
G1 X235.883127 Y321.695491
G1 X235.822798 Y321.862962
G1 X235.807064 Y322.025545
G1 X235.831602 Y322.183951
G1 X235.892088 Y322.338888
G1 X235.984198 Y322.491066
G1 X236.103610 Y322.641194
G1 X236.246001 Y322.789981
G1 X236.407047 Y322.938137
G1 X236.582424 Y323.086371
G1 X236.767811 Y323.235393
G1 X236.978137 Y323.401072
G1 X237.210573 Y323.586538
G1 X237.458685 Y323.795901
G1 X237.688984 Y324.012491
G1 X237.891275 Y324.237980
G1 X238.055365 Y324.474041
G1 X238.135000 Y324.630000
G1 X238.337255 Y325.167829
G1 X238.507540 Y325.764690
G1 X238.644393 Y326.407589
G1 X238.746352 Y327.083536
G1 X238.811956 Y327.779539
G1 X238.839745 Y328.482606
G1 X238.828256 Y329.179745
G1 X238.776029 Y329.857965
G1 X238.681602 Y330.504274
G1 X238.543514 Y331.105680
G1 X238.370000 Y331.625000
G1 X238.168409 Y332.142472
G1 X237.999576 Y332.597313
G1 X237.858680 Y333.000170
G1 X237.740900 Y333.361688
G1 X237.641417 Y333.692513
G1 X237.555410 Y334.003291
G1 X237.478059 Y334.304667
G1 X237.397218 Y334.638028
G1 X237.314603 Y334.987064
G1 X237.223797 Y335.365945
G1 X237.118386 Y335.788839
G1 X236.991953 Y336.269918
G1 X236.890000 Y336.640000
G1 X236.551493 Y337.720648
G1 X236.169263 Y338.760146
G1 X235.761590 Y339.773857
G1 X235.346755 Y340.777139
G1 X234.903981 Y341.887039
G1 X234.505000 Y343.005000
G1 X235.173156 Y343.062143
G1 X235.855697 Y343.180263
G1 X236.548336 Y343.339055
G1 X237.246785 Y343.518214
G1 X237.946757 Y343.697434
G1 X238.643964 Y343.856409
G1 X239.334118 Y343.974835
G1 X240.012933 Y344.032405
G1 X240.616588 Y344.014847
G1 X240.710000 Y344.005000
G1 X241.229599 Y343.912647
G1 X241.779034 Y343.765445
G1 X242.355554 Y343.579209
G1 X242.956410 Y343.369755
G1 X243.578849 Y343.152899
G1 X244.220122 Y342.944456
G1 X244.877478 Y342.760241
G1 X245.548167 Y342.616071
G1 X246.229438 Y342.527761
G1 X246.265000 Y342.525000
G1 X247.224465 Y342.485492
G1 X248.203690 Y342.499958
G1 X249.197539 Y342.549144
G1 X250.200874 Y342.613796
G1 X251.208559 Y342.674662
G1 X252.215456 Y342.712486
G1 X253.216428 Y342.708016
G1 X254.206338 Y342.641997
G1 X255.092335 Y342.512368
G1 X255.230000 Y342.485000
G1 X255.951284 Y342.300998
G1 X256.672211 Y342.051614
G1 X257.392187 Y341.743180
G1 X258.110615 Y341.382030
G1 X258.826901 Y340.974494
G1 X259.540448 Y340.526907
G1 X260.250661 Y340.045599
G1 X260.956946 Y339.536904
G1 X261.658706 Y339.007154
G1 X262.355345 Y338.462682
G1 X263.046269 Y337.909819
G1 X263.798974 Y337.299536
G1 X264.543249 Y336.695193
G1 X265.278303 Y336.105216
G1 X266.003343 Y335.538034
G1 X266.717576 Y335.002076
G1 X267.420211 Y334.505771
G1 X268.110453 Y334.057546
G1 X268.545000 Y333.800000
G1 X269.687145 Y333.195082
G1 X270.834245 Y332.655245
G1 X271.987596 Y332.154035
G1 X273.148491 Y331.664999
G1 X274.318225 Y331.161683
G1 X275.498092 Y330.617633
G1 X276.580581 Y330.065435
G1 X277.573676 Y329.498528
G1 X278.484575 Y328.916517
G1 X279.175000 Y328.430000
G1 X280.526564 Y327.413623
G1 X281.802058 Y326.407782
G1 X283.007203 Y325.409779
G1 X284.147718 Y324.416913
G1 X285.229325 Y323.426485
G1 X286.257743 Y322.435795
G1 X287.238693 Y321.442143
G1 X288.177895 Y320.442830
G1 X289.081069 Y319.435156
G1 X289.953936 Y318.416421
G1 X290.802215 Y317.383926
G1 X291.631628 Y316.334971
G1 X292.447893 Y315.266856
G1 X293.256733 Y314.176881
G1 X294.063866 Y313.062348
G1 X294.875013 Y311.920555
G1 X295.695894 Y310.748804
G1 X296.532231 Y309.544394
G1 X297.389742 Y308.304627
G1 X298.274148 Y307.026802
G1 X299.191170 Y305.708219
G1 X299.515000 Y305.245000
G1 X299.747300 Y304.838117
G1 X299.949032 Y304.453772
G1 X300.115717 Y304.236525
G1 X300.295020 Y304.101292
G1 X300.505320 Y304.023350
G1 X300.746222 Y303.997075
G1 X301.010000 Y304.015000
G1 X302.090569 Y302.198354
G1 X303.214523 Y300.428086
G1 X304.368826 Y298.692085
G1 X305.540439 Y296.978241
G1 X306.716325 Y295.274443
G1 X307.999175 Y293.397412
G1 X309.254068 Y291.501762
G1 X310.463652 Y289.571374
G1 X311.509353 Y287.772766
G1 X312.404080 Y286.091002
G1 X313.162736 Y284.515640
G1 X313.800785 Y283.039125
G1 X314.010000 Y282.515000
G1 X319.010000 Y270.015000
G1 X319.438485 Y268.138748
G1 X319.910921 Y266.321334
G1 X320.427077 Y264.556804
G1 X320.986719 Y262.839202
G1 X321.589615 Y261.162572
G1 X322.235534 Y259.520961
G1 X322.924242 Y257.908412
G1 X323.655507 Y256.318970
G1 X324.429096 Y254.746681
G1 X325.244778 Y253.185589
G1 X326.102320 Y251.629739
G1 X327.001490 Y250.073176
G1 X327.942054 Y248.509944
G1 X328.923782 Y246.934089
G1 X329.510000 Y246.015000
G1 X329.879987 Y245.365377
G1 X330.205348 Y244.678627
G1 X330.513456 Y243.975350
G1 X330.865119 Y243.207246
G1 X331.226097 Y242.536323
G1 X331.574254 Y242.016669
G1 X331.943831 Y241.582099
G1 X332.010000 Y241.515000
G1 X332.999835 Y239.126313
G1 X333.925300 Y236.713468
G1 X334.802573 Y234.282330
G1 X335.647834 Y231.838764
G1 X336.477263 Y229.388635
G1 X337.307040 Y226.937808
G1 X338.153344 Y224.492149
G1 X339.032355 Y222.057521
G1 X339.960253 Y219.639792
G1 X340.010000 Y219.515000
G1 X340.230325 Y218.488230
G1 X340.395082 Y217.423054
G1 X340.514427 Y216.327979
G1 X340.598515 Y215.211515
G1 X340.657502 Y214.082169
G1 X340.701542 Y212.948450
G1 X340.740792 Y211.818868
G1 X340.785407 Y210.701930
G1 X340.845541 Y209.606145
G1 X340.931352 Y208.540022
G1 X341.052993 Y207.512068
G1 X341.220620 Y206.530794
G1 X341.230000 Y206.485000
G1 X341.378380 Y205.912167
G1 X341.586621 Y205.314032
G1 X341.847255 Y204.694377
G1 X342.152810 Y204.056985
G1 X342.495818 Y203.405637
G1 X342.868807 Y202.744117
G1 X343.264309 Y202.076205
G1 X343.674853 Y201.405684
G1 X344.092969 Y200.736337
G1 X344.552727 Y200.005925
G1 X345.002666 Y199.286543
G1 X345.432845 Y198.583225
G1 X345.833320 Y197.901006
G1 X346.194148 Y197.244920
G1 X346.505388 Y196.620001
G1 X346.757096 Y196.031283
G1 X346.925897 Y195.531734
G1 X347.029811 Y195.070047
G1 X347.060000 Y194.770000
G1 X347.063985 Y194.305703
G1 X347.042906 Y193.783303
G1 X346.998233 Y193.209798
G1 X346.931437 Y192.592185
G1 X346.843986 Y191.937463
G1 X346.737352 Y191.252628
G1 X346.613005 Y190.544678
G1 X346.472415 Y189.820611
G1 X346.317052 Y189.087426
G1 X346.148386 Y188.352118
G1 X345.967887 Y187.621687
G1 X345.777027 Y186.903130
G1 X345.577273 Y186.203444
G1 X345.370098 Y185.529627
G1 X345.156971 Y184.888678
G1 X344.939362 Y184.287592
G1 X344.718741 Y183.733369
G1 X344.496579 Y183.233006
G1 X344.274346 Y182.793501
G1 X344.185000 Y182.635000
G1 X343.999551 Y182.389299
G1 X343.775143 Y182.185838
G1 X343.526656 Y182.004588
G1 X343.268969 Y181.825519
G1 X343.016959 Y181.628604
G1 X342.785507 Y181.393812
G1 X342.625000 Y181.165000
G1 X342.416000 Y180.793906
G1 X342.194504 Y180.364378
G1 X341.967683 Y179.889695
G1 X341.742709 Y179.383140
G1 X341.526755 Y178.857990
G1 X341.326993 Y178.327529
G1 X341.150594 Y177.805035
G1 X341.004731 Y177.303789
G1 X340.896576 Y176.837071
G1 X340.835000 Y176.435000
G1 X340.810465 Y175.864541
G1 X340.848480 Y175.324470
G1 X340.937191 Y174.808800
G1 X341.064745 Y174.311545
G1 X341.219287 Y173.826717
G1 X341.388964 Y173.348330
G1 X341.561922 Y172.870397
G1 X341.741819 Y172.338049
G1 X341.895567 Y171.791037
G1 X342.007387 Y171.221393
G1 X342.061503 Y170.621149
G1 X342.060000 Y170.250000
G1 X342.003664 Y169.739641
G1 X341.882887 Y169.211756
G1 X341.708894 Y168.666926
G1 X341.492910 Y168.105731
G1 X341.246162 Y167.528749
G1 X340.979876 Y166.936562
G1 X340.705276 Y166.329750
G1 X340.433589 Y165.708892
G1 X340.176041 Y165.074568
G1 X339.943857 Y164.427358
G1 X339.748264 Y163.767842
G1 X339.600485 Y163.096601
G1 X339.511749 Y162.414214
G1 X339.500000 Y162.240000
G1 X339.453206 Y161.022636
G1 X339.438605 Y159.744547
G1 X339.451326 Y158.415038
G1 X339.486496 Y157.043414
G1 X339.539245 Y155.638981
G1 X339.604699 Y154.211044
G1 X339.677988 Y152.768908
G1 X339.754239 Y151.321879
G1 X339.835723 Y149.735602
G1 X339.908412 Y148.167050
G1 X339.965822 Y146.628607
G1 X340.001469 Y145.132659
G1 X340.010000 Y144.010000
G1 X339.705312 Y143.321798
G1 X339.372117 Y142.698936
G1 X339.011800 Y142.135597
G1 X338.625742 Y141.625966
G1 X338.215327 Y141.164227
G1 X337.781937 Y140.744565
G1 X337.326956 Y140.361163
G1 X336.851765 Y140.008205
G1 X336.357749 Y139.679877
G1 X335.846290 Y139.370363
G1 X335.318770 Y139.073846
G1 X334.776573 Y138.784510
G1 X334.221082 Y138.496542
G1 X333.653679 Y138.204123
G1 X333.075748 Y137.901439
G1 X332.488670 Y137.582675
G1 X331.893830 Y137.242013
G1 X331.510000 Y137.010000
G1 X331.098778 Y136.711162
G1 X330.719854 Y136.361458
G1 X330.378282 Y135.993700
G1 X330.079119 Y135.640697
G1 X329.848206 Y135.360197
G1 X329.675519 Y135.160050
G1 X329.551787 Y135.039553
G1 X329.510000 Y135.010000
G1 X329.433687 Y134.970945
G1 X329.295465 Y134.906519
G1 X329.101072 Y134.819158
G1 X328.856248 Y134.711303
G1 X328.566734 Y134.585391
G1 X328.238268 Y134.443862
G1 X327.876590 Y134.289153
G1 X327.487439 Y134.123704
G1 X327.076556 Y133.949954
G1 X326.649679 Y133.770340
G1 X326.212549 Y133.587301
G1 X325.726712 Y133.384914
G1 X325.195101 Y133.164783
G1 X324.676292 Y132.951457
G1 X324.180454 Y132.749255
G1 X323.717754 Y132.562498
G1 X323.298361 Y132.395504
G1 X322.932442 Y132.252596
G1 X322.630166 Y132.138092
G1 X322.419152 Y132.062282
G1 X322.276778 Y132.016763
G1 X322.225000 Y132.005000
G1 X321.805619 Y131.987634
G1 X321.381987 Y132.031152
G1 X320.954677 Y132.116565
G1 X320.524263 Y132.224883
G1 X320.091316 Y132.337118
G1 X319.612836 Y132.442435
G1 X319.132749 Y132.504238
G1 X319.010000 Y132.510000
G1 X318.471746 Y132.507015
G1 X317.986356 Y132.465555
G1 X317.546743 Y132.387800
G1 X317.145816 Y132.275927
G1 X316.776489 Y132.132115
G1 X316.431672 Y131.958542
G1 X316.104276 Y131.757385
G1 X315.787214 Y131.530823
G1 X315.473396 Y131.281034
G1 X315.155734 Y131.010197
G1 X314.827139 Y130.720488
G1 X314.480523 Y130.414087
G1 X314.108797 Y130.093172
G1 X314.010000 Y130.010000
G1 X313.665905 Y129.719812
G1 X313.277644 Y129.385240
G1 X312.862173 Y129.014854
G1 X312.436452 Y128.617224
G1 X312.017437 Y128.200920
G1 X311.622086 Y127.774512
G1 X311.267357 Y127.346569
G1 X310.970207 Y126.925663
G1 X310.764305 Y126.556338
G1 X310.641298 Y126.237197
G1 X310.620000 Y126.155000
G1 X310.520808 Y125.566356
G1 X310.480232 Y124.957448
G1 X310.487861 Y124.330746
G1 X310.533282 Y123.688720
G1 X310.606082 Y123.033841
G1 X310.695848 Y122.368578
G1 X310.792167 Y121.695403
G1 X310.893261 Y120.948718
G1 X310.975826 Y120.198736
G1 X311.026002 Y119.448744
G1 X311.029931 Y118.702030
G1 X311.005000 Y118.265000
G1 X310.929769 Y117.627987
G1 X310.806855 Y116.942000
G1 X310.637364 Y116.218037
G1 X310.422398 Y115.467096
G1 X310.163062 Y114.700174
G1 X309.860461 Y113.928269
G1 X309.515697 Y113.162377
G1 X309.129876 Y112.413496
G1 X308.704101 Y111.692624
G1 X308.239477 Y111.010758
G1 X307.737108 Y110.378895
G1 X307.198097 Y109.808033
G1 X306.677220 Y109.351257
G1 X306.127803 Y108.962245
G1 X305.604266 Y108.674356
G1 X305.058450 Y108.455507
G1 X304.543446 Y108.321688
G1 X304.011014 Y108.254722
G1 X303.525000 Y108.255000
G1 X303.736348 Y108.411463
G1 X303.924353 Y108.634557
G1 X304.090636 Y108.914031
G1 X304.236821 Y109.239634
G1 X304.364529 Y109.601115
G1 X304.475383 Y109.988224
G1 X304.571004 Y110.390710
G1 X304.653017 Y110.798323
G1 X304.723042 Y111.200812
G1 X304.782703 Y111.587926
G1 X304.833621 Y111.949414
G1 X304.877419 Y112.275026
G1 X304.915720 Y112.554512
G1 X304.950145 Y112.777620
G1 X304.982317 Y112.934100
G1 X305.010975 Y113.009911
G1 X305.015000 Y113.015000
G1 X305.099553 Y113.050475
G1 X305.220724 Y113.030548
G1 X305.373999 Y112.971123
G1 X305.554869 Y112.888100
G1 X305.758820 Y112.797383
G1 X305.981342 Y112.714873
G1 X306.217923 Y112.656472
G1 X306.464051 Y112.638083
G1 X306.715216 Y112.675608
G1 X306.966904 Y112.784948
G1 X307.192370 Y112.960048
G1 X307.391627 Y113.192192
G1 X307.465000 Y113.300000
G1 X307.521885 Y113.414627
G1 X307.592526 Y113.598063
G1 X307.674870 Y113.841793
G1 X307.766860 Y114.137301
G1 X307.866442 Y114.476071
G1 X307.971560 Y114.849587
G1 X308.080159 Y115.249334
G1 X308.190184 Y115.666795
G1 X308.299580 Y116.093454
G1 X308.416736 Y116.563240
G1 X308.538591 Y117.067430
G1 X308.649565 Y117.543818
G1 X308.746017 Y117.977318
G1 X308.824306 Y118.352843
G1 X308.876653 Y118.631226
G1 X308.906303 Y118.822366
G1 X308.915000 Y118.905000
G1 X308.940091 Y119.657804
G1 X308.914086 Y120.463704
G1 X308.842494 Y121.313964
G1 X308.730825 Y122.199850
G1 X308.584589 Y123.112629
G1 X308.409295 Y124.043566
G1 X308.210454 Y124.983926
G1 X307.993574 Y125.924976
G1 X307.764166 Y126.857982
G1 X307.527740 Y127.774208
G1 X307.289805 Y128.664921
G1 X307.055871 Y129.521386
G1 X306.831447 Y130.334870
G1 X306.622044 Y131.096638
G1 X306.510000 Y131.510000
G1 X308.020000 Y131.770000
G1 X307.777821 Y132.745702
G1 X307.475811 Y133.748132
G1 X307.115801 Y134.766272
G1 X306.699619 Y135.789102
G1 X306.229097 Y136.805601
G1 X305.706064 Y137.804752
G1 X305.132351 Y138.775533
G1 X304.509788 Y139.706926
G1 X303.840204 Y140.587911
G1 X303.192230 Y141.335792
G1 X302.508283 Y142.024627
G1 X301.789739 Y142.646137
G1 X301.107652 Y143.145757
G1 X300.510000 Y143.515000
G1 X300.461446 Y143.790118
G1 X300.359172 Y144.089696
G1 X300.231869 Y144.396595
G1 X300.108226 Y144.693678
G1 X300.016934 Y144.963807
G1 X299.986155 Y145.171568
G1 X299.990000 Y145.225000
G1 X300.041813 Y145.359083
G1 X300.141548 Y145.448613
G1 X300.275251 Y145.501760
G1 X300.428966 Y145.526696
G1 X300.588740 Y145.531590
G1 X300.740616 Y145.524614
G1 X300.870640 Y145.513938
G1 X300.964857 Y145.507732
G1 X301.009312 Y145.514169
G1 X301.010000 Y145.515000
G1 X301.207520 Y145.410867
G1 X301.426868 Y145.238806
G1 X301.665983 Y145.006159
G1 X301.922801 Y144.720268
G1 X302.195259 Y144.388473
G1 X302.481294 Y144.018116
G1 X302.778842 Y143.616538
G1 X303.085841 Y143.191082
G1 X303.400227 Y142.749087
G1 X303.719938 Y142.297896
G1 X304.075308 Y141.799725
G1 X304.467495 Y141.260807
G1 X304.857479 Y140.744002
G1 X305.241606 Y140.262315
G1 X305.616220 Y139.828753
G1 X305.977668 Y139.456320
G1 X306.291754 Y139.181735
G1 X306.589193 Y138.978191
G1 X306.842833 Y138.863020
G1 X307.057770 Y138.822451
G1 X307.256206 Y138.848661
G1 X307.436589 Y138.947165
G1 X307.510000 Y139.015000
G1 X307.515020 Y139.418043
G1 X307.511704 Y139.876788
G1 X307.510765 Y140.370291
G1 X307.522917 Y140.877609
G1 X307.558874 Y141.377799
G1 X307.629349 Y141.849919
G1 X307.745056 Y142.273025
G1 X307.882437 Y142.570816
G1 X307.965000 Y142.695000
G1 X308.114464 Y142.836221
G1 X308.304162 Y142.934642
G1 X308.523382 Y143.005499
G1 X308.761408 Y143.064026
G1 X309.007528 Y143.125462
G1 X309.251028 Y143.205041
G1 X309.481193 Y143.318000
G1 X309.687311 Y143.479574
G1 X309.730000 Y143.525000
G1 X309.928960 Y143.804364
G1 X310.107903 Y144.146443
G1 X310.281228 Y144.533035
G1 X310.463336 Y144.945937
G1 X310.668626 Y145.366947
G1 X310.911499 Y145.777864
G1 X311.206353 Y146.160484
G1 X311.531629 Y146.468451
G1 X311.884045 Y146.703566
G1 X312.035000 Y146.780000
G1 X312.325147 Y146.893085
G1 X312.581845 Y146.950919
G1 X312.808907 Y146.962773
G1 X313.010147 Y146.937917
G1 X313.189378 Y146.885621
G1 X313.350412 Y146.815154
G1 X313.497062 Y146.735788
G1 X313.633142 Y146.656791
G1 X313.762465 Y146.587433
G1 X313.888843 Y146.536986
G1 X314.010000 Y146.515000
G1 X314.338937 Y146.524434
G1 X314.616210 Y146.585548
G1 X314.849468 Y146.691530
G1 X315.046362 Y146.835571
G1 X315.214544 Y147.010859
G1 X315.361664 Y147.210586
G1 X315.495373 Y147.427941
G1 X315.623321 Y147.656112
G1 X315.766544 Y147.911467
G1 X315.938884 Y148.187139
G1 X316.139869 Y148.445645
G1 X316.240000 Y148.550000
G1 X316.788295 Y149.027520
G1 X317.343739 Y149.458992
G1 X317.873452 Y149.900400
G1 X318.268432 Y150.312508
G1 X318.551452 Y150.709544
G1 X318.765200 Y151.130912
G1 X318.916681 Y151.575577
G1 X319.010000 Y152.015000
G1 X319.479813 Y152.087557
G1 X319.886928 Y152.189403
G1 X320.237593 Y152.317975
G1 X320.538058 Y152.470715
G1 X320.794573 Y152.645060
G1 X321.013386 Y152.838450
G1 X321.200747 Y153.048324
G1 X321.362906 Y153.272121
G1 X321.506111 Y153.507280
G1 X321.636612 Y153.751241
G1 X321.760659 Y154.001442
G1 X321.897113 Y154.280815
G1 X322.056854 Y154.589201
G1 X322.237430 Y154.894312
G1 X322.449912 Y155.191614
G1 X322.510000 Y155.265000
G1 X322.982164 Y155.765584
G1 X323.493511 Y156.240071
G1 X324.007384 Y156.715224
G1 X324.487124 Y157.217806
G1 X324.831777 Y157.672893
G1 X324.935000 Y157.840000
G1 X325.331885 Y158.572699
G1 X325.659324 Y159.297257
G1 X325.919126 Y160.012908
G1 X326.113099 Y160.718889
G1 X326.243050 Y161.414434
G1 X326.310788 Y162.098777
G1 X326.318121 Y162.771154
G1 X326.266857 Y163.430798
G1 X326.158804 Y164.076946
G1 X325.995769 Y164.708832
G1 X325.779561 Y165.325691
G1 X325.511989 Y165.926756
G1 X325.194859 Y166.511265
G1 X324.829980 Y167.078450
G1 X324.419160 Y167.627548
G1 X323.964207 Y168.157793
G1 X323.466929 Y168.668419
G1 X322.929134 Y169.158661
G1 X322.352630 Y169.627755
G1 X321.739225 Y170.074936
G1 X321.090728 Y170.499437
G1 X320.860000 Y170.640000
G1 X320.561636 Y170.776924
G1 X320.246406 Y170.859093
G1 X319.930524 Y170.903104
G1 X319.630203 Y170.925551
G1 X319.361657 Y170.943030
G1 X319.141102 Y170.972136
G1 X319.010000 Y171.015000
G1 X318.354533 Y171.384155
G1 X317.754127 Y171.765429
G1 X317.176464 Y172.146281
G1 X316.589226 Y172.514172
G1 X315.960096 Y172.856561
G1 X315.385556 Y173.111364
G1 X314.803911 Y173.314499
G1 X314.214177 Y173.470981
G1 X314.010000 Y173.515000
G1 X313.099571 Y173.676902
G1 X312.138582 Y173.800626
G1 X311.138064 Y173.884783
G1 X310.109048 Y173.927983
G1 X309.062563 Y173.928836
G1 X308.009640 Y173.885954
G1 X306.961309 Y173.797946
G1 X305.928601 Y173.663423
G1 X304.922545 Y173.480996
G1 X303.954172 Y173.249275
G1 X303.034512 Y172.966871
G1 X302.250011 Y172.664989
G1 X302.135000 Y172.615000
G1 X301.846831 Y172.446394
G1 X301.605488 Y172.235610
G1 X301.406783 Y172.010323
G1 X301.246525 Y171.798207
G1 X301.120525 Y171.626937
G1 X301.032183 Y171.529969
G1 X301.010000 Y171.515000
G1 X300.860250 Y171.473498
G1 X300.651588 Y171.457436
G1 X300.402802 Y171.447519
G1 X300.132680 Y171.424451
G1 X299.860010 Y171.368936
G1 X299.603580 Y171.261678
G1 X299.560000 Y171.235000
G1 X299.151081 Y170.953387
G1 X298.707121 Y170.620260
G1 X298.236467 Y170.240413
G1 X297.747465 Y169.818641
G1 X297.248462 Y169.359736
G1 X296.747804 Y168.868492
G1 X296.253837 Y168.349702
G1 X295.774908 Y167.808162
G1 X295.319364 Y167.248663
G1 X294.895551 Y166.675999
G1 X294.511815 Y166.094965
G1 X294.176502 Y165.510353
G1 X293.897960 Y164.926958
G1 X293.684534 Y164.349573
G1 X293.544572 Y163.782991
G1 X293.488106 Y163.281325
G1 X293.505521 Y162.796152
G1 X293.590000 Y162.375000
G1 X293.703301 Y162.088449
G1 X293.860002 Y161.848111
G1 X294.055167 Y161.648968
G1 X294.283858 Y161.485999
G1 X294.541139 Y161.354184
G1 X294.822073 Y161.248504
G1 X295.121725 Y161.163939
G1 X295.435156 Y161.095468
G1 X295.757432 Y161.038072
G1 X296.083614 Y160.986731
G1 X296.441036 Y160.931258
G1 X296.824919 Y160.863710
G1 X297.190599 Y160.780700
G1 X297.529331 Y160.673335
G1 X297.832368 Y160.532721
G1 X298.090966 Y160.349966
G1 X298.296379 Y160.116176
G1 X298.429607 Y159.851871
G1 X298.500780 Y159.562994
G1 X298.520000 Y159.265000
G1 X298.481898 Y158.989322
G1 X298.377407 Y158.723247
G1 X298.217858 Y158.466133
G1 X298.014577 Y158.217333
G1 X297.778895 Y157.976204
G1 X297.522140 Y157.742102
G1 X297.255642 Y157.514381
G1 X296.964760 Y157.270490
G1 X296.690874 Y157.032684
G1 X296.449063 Y156.800105
G1 X296.254407 Y156.571895
G1 X296.121982 Y156.347197
G1 X296.075000 Y156.195000
G1 X296.068116 Y155.962434
G1 X296.121715 Y155.731257
G1 X296.220634 Y155.500740
G1 X296.349708 Y155.270153
G1 X296.493772 Y155.038766
G1 X296.651457 Y154.782447
G1 X296.788747 Y154.523308
G1 X296.885458 Y154.260377
G1 X296.921405 Y153.992684
G1 X296.910000 Y153.855000
G1 X296.861526 Y153.705188
G1 X296.764691 Y153.512176
G1 X296.627833 Y153.281761
G1 X296.459287 Y153.019743
G1 X296.267393 Y152.731920
G1 X296.060487 Y152.424089
G1 X295.846906 Y152.102049
G1 X295.634988 Y151.771599
G1 X295.433070 Y151.438536
G1 X295.249489 Y151.108659
G1 X295.092583 Y150.787767
G1 X294.970689 Y150.481657
G1 X294.892144 Y150.196127
G1 X294.865286 Y149.936977
G1 X294.898451 Y149.710004
G1 X294.987704 Y149.536467
G1 X295.005000 Y149.515000
G1 X295.058220 Y149.499959
G1 X295.174098 Y149.488951
G1 X295.335512 Y149.477120
G1 X295.525343 Y149.459612
G1 X295.726471 Y149.431573
G1 X295.921775 Y149.388147
G1 X296.094136 Y149.324480
G1 X296.226433 Y149.235717
G1 X296.301547 Y149.117004
G1 X296.305805 Y148.979008
G1 X296.245563 Y148.825527
G1 X296.129403 Y148.660448
G1 X296 Y148.520000
G1 X295.814474 Y148.356071
G1 X295.655006 Y148.256068
G1 X295.519535 Y148.212751
G1 X295.406004 Y148.218884
G1 X295.312353 Y148.267225
G1 X295.236524 Y148.350538
G1 X295.176458 Y148.461583
G1 X295.130095 Y148.593121
G1 X295.095377 Y148.737913
G1 X295.070245 Y148.888722
G1 X295.052641 Y149.038307
G1 X295.040505 Y149.179431
G1 X295.031778 Y149.304854
G1 X295.024402 Y149.407339
G1 X295.016318 Y149.479645
G1 X295.005467 Y149.514534
G1 X295.005000 Y149.515000
G1 X294.873834 Y149.599736
G1 X294.675359 Y149.676212
G1 X294.416846 Y149.744536
G1 X294.105569 Y149.804812
G1 X293.748800 Y149.857150
G1 X293.353812 Y149.901654
G1 X292.927878 Y149.938432
G1 X292.478272 Y149.967592
G1 X292.012265 Y149.989238
G1 X291.537130 Y150.003479
G1 X291.060141 Y150.010421
G1 X290.541991 Y150.009754
G1 X290.040077 Y150.000527
G1 X289.564079 Y149.982882
G1 X289.123677 Y149.956960
G1 X288.728552 Y149.922904
G1 X288.388384 Y149.880856
G1 X288.112852 Y149.830959
G1 X287.975000 Y149.795000
G1 X287.534715 Y149.623185
G1 X287.122263 Y149.396285
G1 X286.733629 Y149.123379
G1 X286.364796 Y148.813546
G1 X286.011749 Y148.475866
G1 X285.670471 Y148.119417
G1 X285.336947 Y147.753280
G1 X284.974234 Y147.350175
G1 X284.574093 Y146.920332
G1 X284.165844 Y146.520303
G1 X283.742371 Y146.166174
G1 X283.296560 Y145.874029
G1 X282.865907 Y145.675765
G1 X282.448784 Y145.561683
G1 X282.044913 Y145.520550
G1 X282.005000 Y145.520000
G1 X282.104105 Y145.795489
G1 X282.264773 Y146.042831
G1 X282.470946 Y146.268295
G1 X282.706566 Y146.478151
G1 X282.955574 Y146.678668
G1 X283.201912 Y146.876117
G1 X283.429522 Y147.076765
G1 X283.622346 Y147.286884
G1 X283.764324 Y147.512743
G1 X283.770000 Y147.525000
G1 X283.853506 Y147.806439
G1 X283.866503 Y148.116232
G1 X283.814495 Y148.448071
G1 X283.702992 Y148.795649
G1 X283.537499 Y149.152658
G1 X283.323524 Y149.512789
G1 X283.066574 Y149.869737
G1 X282.772156 Y150.217191
G1 X282.445776 Y150.548846
G1 X282.092941 Y150.858392
G1 X281.719159 Y151.139523
G1 X281.329937 Y151.385930
G1 X280.930781 Y151.591306
G1 X280.527199 Y151.749343
G1 X280.124697 Y151.853733
G1 X279.728783 Y151.898168
G1 X279.344964 Y151.876341
G1 X278.978745 Y151.781944
G1 X278.665727 Y151.627846
G1 X278.505000 Y151.515000
G1 X278.528293 Y151.969046
G1 X278.520859 Y152.489249
G1 X278.483646 Y153.068132
G1 X278.417603 Y153.698217
G1 X278.323677 Y154.372026
G1 X278.202817 Y155.082079
G1 X278.055970 Y155.820901
G1 X277.884085 Y156.581011
G1 X277.688110 Y157.354932
G1 X277.468993 Y158.135187
G1 X277.227682 Y158.914296
G1 X276.965124 Y159.684782
G1 X276.682270 Y160.439166
G1 X276.380065 Y161.169971
G1 X276.059459 Y161.869718
G1 X275.721399 Y162.530929
G1 X275.366834 Y163.146126
G1 X274.996711 Y163.707831
G1 X274.611980 Y164.208566
G1 X274.213587 Y164.640852
G1 X273.840355 Y164.968150
G1 X273.457328 Y165.227080
G1 X273.065220 Y165.412024
G1 X272.735000 Y165.505000
G1 X272.390631 Y165.539876
G1 X271.995971 Y165.535664
G1 X271.576317 Y165.509560
G1 X271.156964 Y165.478764
G1 X270.763208 Y165.460473
G1 X270.420342 Y165.471884
G1 X270.193378 Y165.515962
G1 X270.060000 Y165.580000
G1 X269.982261 Y165.680477
G1 X269.918759 Y165.847152
G1 X269.861580 Y166.063821
G1 X269.802810 Y166.314277
G1 X269.734535 Y166.582315
G1 X269.648841 Y166.851731
G1 X269.537813 Y167.106320
G1 X269.393537 Y167.329876
G1 X269.355000 Y167.375000
G1 X268.617905 Y168.151157
G1 X267.872138 Y168.852896
G1 X267.115689 Y169.484883
G1 X266.346546 Y170.051783
G1 X265.562699 Y170.558262
G1 X264.762138 Y171.008985
G1 X263.942852 Y171.408618
G1 X263.102831 Y171.761826
G1 X262.240064 Y172.073276
G1 X261.352539 Y172.347632
G1 X260.438248 Y172.589561
G1 X259.495179 Y172.803728
G1 X258.521321 Y172.994797
G1 X258.270000 Y173.040000
G1 X258.097740 Y173.093479
G1 X257.883329 Y173.198042
G1 X257.629591 Y173.350519
G1 X257.339351 Y173.547742
G1 X257.015433 Y173.786539
G1 X256.660661 Y174.063743
G1 X256.277860 Y174.376184
G1 X255.869855 Y174.720691
G1 X255.439469 Y175.094096
G1 X254.989527 Y175.493229
G1 X254.522854 Y175.914920
G1 X254.042273 Y176.356001
G1 X253.550611 Y176.813301
G1 X253.050690 Y177.283651
G1 X252.545335 Y177.763882
G1 X252.037371 Y178.250824
G1 X251.478968 Y178.790428
G1 X250.869512 Y179.383908
G1 X250.210699 Y180.030128
G1 X249.570486 Y180.662177
G1 X248.955532 Y181.272584
G1 X248.372498 Y181.853874
G1 X247.828042 Y182.398573
G1 X247.328825 Y182.899208
G1 X246.881506 Y183.348307
G1 X246.525493 Y183.705566
G1 X246.222878 Y184.008442
G1 X245.998323 Y184.231866
G1 X245.980000 Y184.250000
G1 X245.471316 Y184.797031
G1 X244.956772 Y185.400394
G1 X244.422454 Y186.019763
G1 X243.854448 Y186.614809
G1 X243.349701 Y187.059551
G1 X242.856018 Y187.406387
G1 X242.373298 Y187.659309
G1 X241.902574 Y187.826495
G1 X241.445389 Y187.918226
G1 X240.957757 Y187.945076
G1 X240.485929 Y187.907079
G1 X239.984990 Y187.804017
G1 X239.970000 Y187.800000
G1 X239.614876 Y187.668697
G1 X239.298403 Y187.480451
G1 X239.018071 Y187.240156
G1 X238.771372 Y186.952704
G1 X238.555797 Y186.622990
G1 X238.368839 Y186.255906
G1 X238.207990 Y185.856346
G1 X238.070739 Y185.429203
G1 X237.954580 Y184.979372
G1 X237.857004 Y184.511744
G1 X237.775502 Y184.031214
G1 X237.707565 Y183.542676
G1 X237.650687 Y183.051021
G1 X237.602357 Y182.561144
G1 X237.560069 Y182.077938
G1 X237.521312 Y181.606297
G1 X237.483580 Y181.151114
G1 X237.444363 Y180.717281
G1 X237.401153 Y180.309694
G1 X237.351442 Y179.933245
G1 X237.292722 Y179.592827
G1 X237.270000 Y179.485000
G1 X236.832805 Y177.532157
G1 X236.371677 Y175.512178
G1 X235.888988 Y173.437693
G1 X235.387109 Y171.321333
G1 X234.868412 Y169.175729
G1 X234.335267 Y167.013510
G1 X233.790047 Y164.847309
G1 X233.235124 Y162.689754
G1 X232.672867 Y160.553478
G1 X232.105649 Y158.451110
G1 X231.535842 Y156.395280
G1 X230.965816 Y154.398621
G1 X230.397944 Y152.473761
G1 X230.255000 Y152.000000
G1 X230.033938 Y151.357039
G1 X229.758009 Y150.680631
G1 X229.441119 Y149.980090
G1 X229.097173 Y149.264733
G1 X228.740074 Y148.543875
G1 X228.348672 Y147.755697
G1 X227.976688 Y146.984533
G1 X227.642632 Y146.242784
G1 X227.387429 Y145.604424
G1 X227.207599 Y145.061924
G1 X227.105000 Y144.650000
G1 X226.996334 Y143.915578
G1 X226.951184 Y143.175471
G1 X226.945688 Y142.428819
G1 X226.955985 Y141.674764
G1 X226.958211 Y140.912444
G1 X226.928506 Y140.141000
G1 X226.843006 Y139.359572
G1 X226.775000 Y138.980000
G1 X226.644795 Y138.478929
G1 X226.456955 Y137.935144
G1 X226.218785 Y137.354539
G1 X225.937591 Y136.743007
G1 X225.620678 Y136.106440
G1 X225.275352 Y135.450732
G1 X224.908919 Y134.781776
G1 X224.528684 Y134.105464
G1 X224.141953 Y133.427689
G1 X223.717766 Y132.687482
G1 X223.304283 Y131.960479
G1 X222.911227 Y131.254525
G1 X222.548322 Y130.577462
G1 X222.225293 Y129.937135
G1 X221.951863 Y129.341386
G1 X221.754513 Y128.845081
G1 X221.613496 Y128.397994
G1 X221.540330 Y128.039218
G1 X221.525000 Y127.735000
G1 X221.568718 Y127.401272
G1 X221.658312 Y127.120856
G1 X221.787002 Y126.888337
G1 X221.948012 Y126.698303
G1 X222.134562 Y126.545341
G1 X222.339875 Y126.424038
G1 X222.557172 Y126.328981
G1 X222.779674 Y126.254757
G1 X223.000605 Y126.195954
G1 X223.213185 Y126.147159
G1 X223.410637 Y126.102957
G1 X223.586181 Y126.057938
G1 X223.733040 Y126.006687
G1 X223.844436 Y125.943793
G1 X223.890000 Y125.900000
G1 X223.974713 Y125.735642
G1 X224.022047 Y125.517467
G1 X224.046618 Y125.260808
G1 X224.063047 Y124.981002
G1 X224.085949 Y124.693383
G1 X224.129945 Y124.413286
G1 X224.209652 Y124.156046
G1 X224.265000 Y124.045000
G1 X224.539619 Y123.651591
G1 X224.867929 Y123.306391
G1 X225.241785 Y123.002629
G1 X225.653045 Y122.733532
G1 X226.093564 Y122.492329
G1 X226.555200 Y122.272248
G1 X227.029810 Y122.066517
G1 X227.509249 Y121.868364
G1 X228.032491 Y121.651066
G1 X228.540884 Y121.425731
G1 X229.023590 Y121.183346
G1 X229.469770 Y120.914896
G1 X229.868585 Y120.611369
G1 X230.180921 Y120.297412
G1 X230.437011 Y119.940244
G1 X230.614159 Y119.572352
G1 X230.731974 Y119.158064
G1 X230.782443 Y118.736896
G1 X230.774224 Y118.269359
G1 X230.745000 Y118.005000
G1 X230.200318 Y118.144038
G1 X229.708589 Y118.230222
G1 X229.266991 Y118.267239
G1 X228.872702 Y118.258773
G1 X228.522901 Y118.208510
G1 X228.214766 Y118.120135
G1 X227.945477 Y117.997333
G1 X227.712212 Y117.843789
G1 X227.512149 Y117.663189
G1 X227.342467 Y117.459218
G1 X227.200344 Y117.235561
G1 X227.082960 Y116.995904
G1 X226.987493 Y116.743931
G1 X226.911121 Y116.483328
G1 X226.851023 Y116.217780
G1 X226.804377 Y115.950972
G1 X226.768363 Y115.686591
G1 X226.740159 Y115.428319
G1 X226.716942 Y115.179844
G1 X226.695893 Y114.944851
G1 X226.674190 Y114.727023
G1 X226.649010 Y114.530048
G1 X226.617533 Y114.357610
G1 X226.576938 Y114.213394
G1 X226.524402 Y114.101085
G1 X226.470000 Y114.035000
G1 X226.355311 Y113.982388
G1 X226.185828 Y113.966332
G1 X225.974858 Y113.975789
G1 X225.735710 Y113.999716
G1 X225.481691 Y114.027070
G1 X225.226109 Y114.046810
G1 X224.982271 Y114.047892
G1 X224.763486 Y114.019274
G1 X224.583061 Y113.949913
G1 X224.575000 Y113.945000
G1 X224.516971 Y113.876204
G1 X224.445465 Y113.738229
G1 X224.363094 Y113.541086
G1 X224.272475 Y113.294789
G1 X224.176221 Y113.009348
G1 X224.076946 Y112.694778
G1 X223.977266 Y112.361090
G1 X223.879795 Y112.018297
G1 X223.778248 Y111.642658
G1 X223.686017 Y111.281443
G1 X223.606581 Y110.947979
G1 X223.543421 Y110.655592
G1 X223.500017 Y110.417609
G1 X223.480000 Y110.250000
G1 X223.466592 Y109.761088
G1 X223.486620 Y109.331030
G1 X223.537696 Y108.954670
G1 X223.617432 Y108.626852
G1 X223.723440 Y108.342422
G1 X223.853332 Y108.096222
G1 X224.004719 Y107.883099
G1 X224.175215 Y107.697895
G1 X224.362430 Y107.535456
G1 X224.563977 Y107.390625
G1 X224.777467 Y107.258247
G1 X225.000512 Y107.133167
G1 X225.230726 Y107.010229
G1 X225.489388 Y106.871317
G1 X225.750655 Y106.721896
G1 X226.011348 Y106.555104
G1 X226.268288 Y106.364079
G1 X226.518297 Y106.141958
G1 X226.758196 Y105.881880
G1 X226.984807 Y105.576981
G1 X227.110000 Y105.375000
G1 X227.409791 Y104.794257
G1 X227.641529 Y104.221290
G1 X227.817242 Y103.659016
G1 X227.948960 Y103.110349
G1 X228.048710 Y102.578206
G1 X228.128520 Y102.065502
G1 X228.200419 Y101.575152
G1 X228.276435 Y101.110073
G1 X228.368596 Y100.673181
G1 X228.488931 Y100.267390
G1 X228.649467 Y99.895617
G1 X228.862234 Y99.560778
G1 X229.111104 Y99.290881
G1 X229.422117 Y99.056108
G1 X229.766386 Y98.875001
G1 X230.176272 Y98.726378
G1 X230.611549 Y98.620839
G1 X231.111766 Y98.544744
G1 X231.682025 Y98.499328
G1 X232.265515 Y98.485705
G1 X232.914940 Y98.499387
G1 X233.235000 Y98.515000
G1 X234.448456 Y98.611730
G1 X235.618747 Y98.757949
G1 X236.750050 Y98.949443
G1 X237.846541 Y99.181999
G1 X238.912395 Y99.451401
G1 X239.951789 Y99.753436
G1 X240.968899 Y100.083889
G1 X241.967900 Y100.438546
G1 X242.952968 Y100.813194
G1 X243.928280 Y101.203617
G1 X244.898011 Y101.605601
G1 X245.866337 Y102.014933
G1 X246.934857 Y102.468654
G1 X248.120737 Y102.965432
G1 X249.324797 Y103.452544
G1 X250.554436 Y103.922525
G1 X251.500000 Y104.260000
G1 X251.770996 Y104.344434
G1 X252.110544 Y104.434596
G1 X252.506560 Y104.526970
G1 X252.946958 Y104.618042
G1 X253.419651 Y104.704295
G1 X253.912554 Y104.782216
G1 X254.413581 Y104.848288
G1 X254.910646 Y104.898997
G1 X255.391664 Y104.930827
G1 X255.844548 Y104.940262
G1 X256.257214 Y104.923788
G1 X256.617574 Y104.877889
G1 X256.913544 Y104.799050
G1 X257.116562 Y104.695836
G1 X257.238636 Y104.573638
G1 X257.294150 Y104.422374
G1 X257.281117 Y104.257969
G1 X257.202311 Y104.066411
G1 X257.052607 Y103.846209
G1 X256.850677 Y103.619916
G1 X256.582065 Y103.367598
G1 X256.480000 Y103.280000
G1 X256.328318 Y103.184928
G1 X256.105197 Y103.089779
G1 X255.817607 Y102.994398
G1 X255.472515 Y102.898628
G1 X255.076892 Y102.802314
G1 X254.637706 Y102.705299
G1 X254.161926 Y102.607428
G1 X253.656520 Y102.508544
G1 X253.128458 Y102.408491
G1 X252.584709 Y102.307114
G1 X252.032242 Y102.204255
G1 X251.422776 Y102.089214
G1 X250.760989 Y101.960134
G1 X250.120210 Y101.828129
G1 X249.512785 Y101.692924
G1 X248.951060 Y101.554241
G1 X248.447380 Y101.411804
G1 X248.014093 Y101.265338
G1 X248.000000 Y101.260000
G1 X247.836354 Y101.194441
G1 X247.610199 Y101.098075
G1 X247.327712 Y100.973783
G1 X246.995068 Y100.824447
G1 X246.618441 Y100.652948
G1 X246.204008 Y100.462166
G1 X245.757944 Y100.254985
G1 X245.286424 Y100.034284
G1 X244.795623 Y99.802946
G1 X244.291717 Y99.563851
G1 X243.780881 Y99.319881
G1 X243.218328 Y99.049323
G1 X242.608276 Y98.753501
G1 X242.018004 Y98.464504
G1 X241.458453 Y98.187439
G1 X240.940564 Y97.927409
G1 X240.475275 Y97.689518
G1 X240.073528 Y97.478873
G1 X239.772648 Y97.315313
G1 X239.559452 Y97.193050
G1 X239.410096 Y97.098932
G1 X239.330756 Y97.035841
G1 X239.330000 Y97.035000
G1 X239.119390 Y96.778783
G1 X238.968262 Y96.549776
G1 X238.873334 Y96.346712
G1 X238.831325 Y96.168321
G1 X238.838953 Y96.013336
G1 X238.892935 Y95.880489
G1 X238.989992 Y95.768510
G1 X239.126841 Y95.676133
G1 X239.300201 Y95.602089
G1 X239.506790 Y95.545110
G1 X239.743326 Y95.503927
G1 X240.006528 Y95.477272
G1 X240.293115 Y95.463878
G1 X240.599805 Y95.462476
G1 X240.923316 Y95.471797
G1 X241.260366 Y95.490575
G1 X241.607675 Y95.517539
G1 X241.961961 Y95.551423
G1 X242.319941 Y95.590958
G1 X242.714071 Y95.639459
G1 X243.142979 Y95.696922
G1 X243.561394 Y95.756512
G1 X243.963502 Y95.815984
G1 X244.343491 Y95.873090
G1 X244.695545 Y95.925584
G1 X245.013853 Y95.971219
G1 X245.292600 Y96.007748
G1 X245.525974 Y96.032925
G1 X245.708159 Y96.044504
G1 X245.740000 Y96.045000
G1 X247.995601 Y96.016204
G1 X250.251387 Y95.934922
G1 X252.509897 Y95.845204
G1 X254.773668 Y95.791101
G1 X256.650330 Y95.804590
G1 X258.362217 Y95.884993
G1 X259.745000 Y96.010000
G1 X260.332317 Y96.097486
G1 X260.858148 Y96.218969
G1 X261.338537 Y96.370787
G1 X261.789526 Y96.549280
G1 X262.227160 Y96.750786
G1 X262.667482 Y96.971645
G1 X263.126536 Y97.208195
G1 X263.620365 Y97.456776
G1 X263.740000 Y97.515000
G1 X263.774165 Y97.126243
G1 X263.841811 Y96.800961
G1 X263.940500 Y96.535633
G1 X264.067793 Y96.326738
G1 X264.221252 Y96.170755
G1 X264.398437 Y96.064162
G1 X264.596911 Y96.003438
G1 X264.814235 Y95.985063
G1 X265.047969 Y96.005514
G1 X265.295676 Y96.061271
G1 X265.554917 Y96.148813
G1 X265.823253 Y96.264619
G1 X266.098246 Y96.405166
G1 X266.377457 Y96.566935
G1 X266.658447 Y96.746404
G1 X266.938778 Y96.940052
G1 X267.216010 Y97.144357
G1 X267.487707 Y97.355799
G1 X267.751428 Y97.570857
G1 X268.004735 Y97.786008
G1 X268.245190 Y97.997733
G1 X268.470354 Y98.202509
G1 X268.677789 Y98.396816
G1 X268.770000 Y98.485000
G1 X269.248569 Y98.995791
G1 X269.704630 Y99.561716
G1 X270.150672 Y100.160378
G1 X270.599186 Y100.769380
G1 X271.062662 Y101.366326
G1 X271.553590 Y101.928820
G1 X272.034222 Y102.391435
G1 X272.507702 Y102.757065
G1 X272.810000 Y102.945000
G1 X273.771098 Y103.462750
G1 X274.801108 Y103.973778
G1 X275.885167 Y104.480119
G1 X277.008409 Y104.983803
G1 X278.155973 Y105.486862
G1 X279.312992 Y105.991330
G1 X280.578896 Y106.550295
G1 X281.818473 Y107.116127
G1 X283.011939 Y107.691530
G1 X284.139510 Y108.279210
G1 X284.675000 Y108.580000
G1 X285.044478 Y108.827313
G1 X285.430783 Y109.141380
G1 X285.829507 Y109.501817
G1 X286.236240 Y109.888235
G1 X286.646573 Y110.280249
G1 X287.096835 Y110.693596
G1 X287.540251 Y111.061913
G1 X287.932476 Y111.334837
G1 X288.255000 Y111.505000
G1 X288.448178 Y111.570622
G1 X288.595518 Y111.584277
G1 X288.702736 Y111.551768
G1 X288.775548 Y111.478896
G1 X288.819672 Y111.371466
G1 X288.840822 Y111.235278
G1 X288.844717 Y111.076137
G1 X288.837072 Y110.899844
G1 X288.823604 Y110.712203
G1 X288.810029 Y110.519016
G1 X288.801795 Y110.307030
G1 X288.807958 Y110.103078
G1 X288.836125 Y109.914883
G1 X288.893905 Y109.750168
G1 X288.988907 Y109.616658
G1 X289.128740 Y109.522075
G1 X289.321011 Y109.474142
G1 X289.547710 Y109.477548
G1 X289.740000 Y109.510000
G1 X289.901435 Y109.571311
G1 X290.106412 Y109.691300
G1 X290.348750 Y109.864501
G1 X290.622268 Y110.085450
G1 X290.920787 Y110.348679
G1 X291.238125 Y110.648724
G1 X291.568102 Y110.980117
G1 X291.904538 Y111.337393
G1 X292.241252 Y111.715087
G1 X292.572064 Y112.107732
G1 X292.890793 Y112.509862
G1 X293.191259 Y112.916012
G1 X293.467281 Y113.320715
G1 X293.712680 Y113.718506
G1 X293.921273 Y114.103919
G1 X294.086882 Y114.471487
G1 X294.203325 Y114.815746
G1 X294.264423 Y115.131228
G1 X294.263994 Y115.412468
G1 X294.245000 Y115.515000
G1 X294.304863 Y115.304467
G1 X294.347131 Y115.032248
G1 X294.372821 Y114.704578
G1 X294.382951 Y114.327694
G1 X294.378538 Y113.907831
G1 X294.360601 Y113.451225
G1 X294.330156 Y112.964111
G1 X294.288221 Y112.452725
G1 X294.235815 Y111.923302
G1 X294.173954 Y111.382079
G1 X294.103656 Y110.835291
G1 X294.025939 Y110.289173
G1 X293.933096 Y109.696660
G1 X293.833862 Y109.120803
G1 X293.729591 Y108.569902
G1 X293.621637 Y108.052256
G1 X293.511356 Y107.576165
G1 X293.400101 Y107.149928
G1 X293.289228 Y106.781846
G1 X293.180090 Y106.480217
G1 X293.074042 Y106.253342
G1 X292.981456 Y106.118945
G1 X292.930000 Y106.075000
G1 X292.751680 Y106.006408
G1 X292.522040 Y105.973104
G1 X292.251636 Y105.965338
G1 X291.951027 Y105.973362
G1 X291.630769 Y105.987429
G1 X291.301419 Y105.997789
G1 X290.973536 Y105.994696
G1 X290.657675 Y105.968399
G1 X290.364394 Y105.909152
G1 X290.350000 Y105.905000
G1 X290.284595 Y105.879241
G1 X290.162056 Y105.825320
G1 X289.991029 Y105.747401
G1 X289.780161 Y105.649646
G1 X289.538101 Y105.536220
G1 X289.273493 Y105.411287
G1 X288.994987 Y105.279011
G1 X288.711229 Y105.143554
G1 X288.403348 Y104.995849
G1 X288.111086 Y104.854876
G1 X287.845949 Y104.726178
G1 X287.619449 Y104.615296
G1 X287.443093 Y104.527773
G1 X287.330000 Y104.470000
G1 X287.184619 Y104.388124
G1 X286.986388 Y104.269085
G1 X286.741981 Y104.117239
G1 X286.458071 Y103.936936
G1 X286.141331 Y103.732532
G1 X285.798434 Y103.508377
G1 X285.436054 Y103.268826
G1 X285.060864 Y103.018232
G1 X284.679537 Y102.760947
G1 X284.260954 Y102.475401
G1 X283.811863 Y102.164949
G1 X283.386127 Y101.865797
G1 X282.995567 Y101.585657
G1 X282.652007 Y101.332240
G1 X282.367268 Y101.113257
G1 X282.169405 Y100.950553
G1 X282.047666 Y100.837741
G1 X281.988192 Y100.762858
G1 X281.985000 Y100.755000
G1 X281.898120 Y100.435659
G1 X281.858020 Y100.170384
G1 X281.862711 Y99.954722
G1 X281.910209 Y99.784222
G1 X281.998526 Y99.654431
G1 X282.125676 Y99.560896
G1 X282.289673 Y99.499166
G1 X282.488530 Y99.464787
G1 X282.720261 Y99.453309
G1 X282.982879 Y99.460277
G1 X283.260000 Y99.480000
G1 X283.642814 Y99.552938
G1 X284.014568 Y99.691526
G1 X284.372958 Y99.878136
G1 X284.715677 Y100.095142
G1 X285.040419 Y100.324918
G1 X285.344877 Y100.549836
G1 X285.626747 Y100.752271
G1 X285.883721 Y100.914594
G1 X286.113494 Y101.019181
G1 X286.296833 Y101.049324
G1 X286.440886 Y101.011535
G1 X286.475000 Y100.990000
G1 X286.497684 Y100.935840
G1 X286.525206 Y100.817004
G1 X286.562941 Y100.650832
G1 X286.616263 Y100.454667
G1 X286.690546 Y100.245848
G1 X286.791165 Y100.041718
G1 X286.923494 Y99.859617
G1 X287.000000 Y99.785000
G1 X287.356288 Y99.526826
G1 X287.736651 Y99.335377
G1 X288.138216 Y99.204111
G1 X288.558110 Y99.126489
G1 X288.993458 Y99.095970
G1 X289.441386 Y99.106014
G1 X289.899022 Y99.150081
G1 X290.363492 Y99.221630
G1 X290.831921 Y99.314120
G1 X291.301436 Y99.421012
G1 X291.769164 Y99.535765
G1 X292.278170 Y99.663267
G1 X292.777711 Y99.783662
G1 X293.263963 Y99.888245
G1 X293.733100 Y99.968310
G1 X293.995000 Y100
G1 Y90.250000
G1 X294.020197 Y89.914608
G1 X294.091021 Y89.525464
G1 X294.200318 Y89.091333
G1 X294.340935 Y88.620980
G1 X294.505720 Y88.123167
G1 X294.687518 Y87.606659
G1 X294.879178 Y87.080221
G1 X295.073545 Y86.552615
G1 X295.281941 Y85.981362
G1 X295.475437 Y85.430966
G1 X295.644513 Y84.913092
G1 X295.779649 Y84.439407
G1 X295.855000 Y84.110000
G1 X296.919790 Y78.546219
G1 X297.915074 Y72.991533
G1 X298.846691 Y67.439343
G1 X299.720481 Y61.883045
G1 X300.542283 Y56.316040
G1 X301.317937 Y50.731725
G1 X301.455000 Y49.710000
G1 X301.495886 Y49.343762
G1 X301.532241 Y48.906942
G1 X301.565332 Y48.407784
G1 X301.596422 Y47.854531
G1 X301.626777 Y47.255428
G1 X301.657663 Y46.618719
G1 X301.690343 Y45.952649
G1 X301.726083 Y45.265460
G1 X301.766147 Y44.565398
G1 X301.811802 Y43.860706
G1 X301.869989 Y43.090037
G1 X301.938153 Y42.334714
G1 X302.017979 Y41.605711
G1 X302.111151 Y40.913999
G1 X302.219353 Y40.270553
G1 X302.344267 Y39.686345
G1 X302.487578 Y39.172347
G1 X302.635241 Y38.775237
G1 X302.784946 Y38.479387
G1 X302.950362 Y38.251993
G1 X303.115000 Y38.110000
G1 X303.305722 Y38.021048
G1 X303.482081 Y37.990317
G1 X303.649251 Y37.993295
G1 X303.812403 Y38.005468
G1 X303.993405 Y38.000222
G1 X303.995000 Y38
G1 X303.799041 Y37.451283
G1 X303.664373 Y36.902039
G1 X303.579791 Y36.352105
G1 X303.534093 Y35.801319
G1 X303.516072 Y35.249520
G1 X303.514524 Y34.696545
G1 X303.518246 Y34.142234
G1 X303.515054 Y33.530755
G1 X303.495000 Y33
G1 X303.457174 Y32.405068
G1 X303.420781 Y31.872282
G1 X303.388466 Y31.386023
G1 X303.362872 Y30.930668
G1 X303.346643 Y30.490599
G1 X303.342424 Y30.050194
G1 X303.352858 Y29.593833
G1 X303.380589 Y29.105895
G1 X303.428261 Y28.570761
G1 X303.495000 Y28
G1 X303.462503 Y27.964043
G1 X303.380057 Y27.897867
G1 X303.276848 Y27.797848
G1 X303.182062 Y27.660362
G1 X303.124883 Y27.481785
G1 X303.130095 Y27.280734
G1 X303.201186 Y27.063601
G1 X303.210000 Y27.045000
G1 X303.403389 Y26.698029
G1 X303.610844 Y26.415315
G1 X303.828928 Y26.182768
G1 X304.054204 Y25.986299
G1 X304.283234 Y25.811819
G1 X304.512580 Y25.645239
G1 X304.761124 Y25.454310
G1 X305.001316 Y25.237139
G1 X305.228580 Y24.974975
G1 X305.438342 Y24.649065
G1 X305.609997 Y24.281686
G1 X305.747321 Y23.876684
G1 X305.854437 Y23.440592
G1 X305.942667 Y22.931608
G1 X305.995000 Y22.500000
G1 X306.121641 Y20.858768
G1 X306.203510 Y19.191215
G1 X306.287603 Y17.518295
G1 X306.420914 Y15.860961
G1 X306.555000 Y14.810000
G1 X306.840333 Y13.176688
G1 X307.182532 Y11.549331
G1 X307.561576 Y9.925099
G1 X307.957443 Y8.301160
G1 X308.388429 Y6.511786
G1 X308.788894 Y4.715572
G1 X309.132188 Y2.908750
G1 X309.353802 Y1.404821
G1 X309.495000 Y0
G1 X72.500000
G1 X72.666805 Y3.143813
G1 X72.904391 Y6.274756
G1 X73.207451 Y9.393931
G1 X73.570678 Y12.502442
G1 X73.988766 Y15.601394
G1 X74.456409 Y18.691890
G1 X74.968300 Y21.775035
G1 X75.519133 Y24.851931
G1 X76.103601 Y27.923684
G1 X76.716399 Y30.991396
G1 X77.352219 Y34.056173
G1 X78.005755 Y37.119116
G1 X78.671702 Y40.181332
G1 X79.344752 Y43.243922
G1 X79.735000 Y45.015000
G1 X81.159319 Y51.318044
G1 X82.611710 Y57.650220
G1 X83.160000 Y60.090000
G1 X83.744217 Y62.640420
G1 X84.375975 Y65.250379
G1 X85.054280 Y67.912115
G1 X85.778139 Y70.617864
G1 X86.546557 Y73.359865
G1 X87.358542 Y76.130354
G1 X88.213100 Y78.921568
G1 X89.109237 Y81.725745
G1 X90.045960 Y84.535122
G1 X91.022276 Y87.341936
G1 X92.037192 Y90.138425
G1 X93.089712 Y92.916825
G1 X94.178845 Y95.669374
G1 X95.303596 Y98.388309
G1 X96.462973 Y101.065867
G1 X97.655981 Y103.694286
G1 X98.881627 Y106.265803
G1 X100.138918 Y108.772654
G1 X101.308534 Y110.988963
G1 X102.502735 Y113.139583
G1 X103.720775 Y115.218680
G1 X104.560000 Y116.585000
G1 X104.937421 Y117.154239
G1 X105.374371 Y117.760726
G1 X105.860973 Y118.401343
G1 X106.387346 Y119.072970
G1 X106.943611 Y119.772488
G1 X107.519889 Y120.496777
G1 X108.106300 Y121.242719
G1 X108.692966 Y122.007194
G1 X109.270006 Y122.787083
G1 X109.827541 Y123.579266
G1 X110.355693 Y124.380624
G1 X110.844582 Y125.188038
G1 X111.284327 Y125.998388
G1 X111.665051 Y126.808555
G1 X111.976874 Y127.615421
G1 X112.192245 Y128.343444
G1 X112.335087 Y129.063818
G1 X112.395757 Y129.710091
G1 X112.384773 Y130.346345
G1 X112.307917 Y130.914580
G1 X112.163045 Y131.471755
G1 X111.945967 Y132.016549
G1 X111.710000 Y132.455000
G1 X111.439872 Y132.844617
G1 X111.149181 Y133.160550
G1 X110.839297 Y133.407595
G1 X110.511590 Y133.590549
G1 X110.167430 Y133.714207
G1 X109.808186 Y133.783366
G1 X109.435230 Y133.802822
G1 X109.049931 Y133.777371
G1 X108.653658 Y133.711809
G1 X108.247783 Y133.610932
G1 X107.833674 Y133.479537
G1 X107.412702 Y133.322418
G1 X106.986237 Y133.144374
G1 X106.555649 Y132.950199
G1 X106.122307 Y132.744689
G1 X105.687583 Y132.532641
G1 X105.209423 Y132.297561
G1 X104.685606 Y132.044158
G1 X104.166402 Y131.804424
G1 X103.654239 Y131.586857
G1 X103.151545 Y131.399954
G1 X102.660745 Y131.252211
G1 X102.530000 Y131.220000
G1 X102.271032 Y131.145831
G1 X101.967667 Y131.053229
G1 X101.655289 Y130.978246
G1 X101.393263 Y130.955706
G1 X101.212066 Y130.989816
G1 X101.088644 Y131.076036
G1 X101.020390 Y131.210044
G1 X101.002034 Y131.385355
G1 X101.010000 Y131.490000
G1 X101.627206 Y131.631594
G1 X102.260286 Y131.837766
G1 X102.900946 Y132.098768
G1 X103.540896 Y132.404852
G1 X104.171842 Y132.746269
G1 X104.785494 Y133.113271
G1 X105.373558 Y133.496110
G1 X105.927743 Y133.885037
G1 X106.439756 Y134.270305
G1 X106.465000 Y134.290000
G1 X107.347586 Y135.014489
G1 X108.233130 Y135.801999
G1 X109.122730 Y136.639081
G1 X110.017484 Y137.512286
G1 X110.918489 Y138.408165
G1 X111.826844 Y139.313269
G1 X112.743646 Y140.214150
G1 X113.669993 Y141.097357
G1 X114.606984 Y141.949442
G1 X115.555715 Y142.756956
G1 X116.517286 Y143.506450
G1 X117.492793 Y144.184475
G1 X117.540000 Y144.215000
G1 X118.160125 Y144.570617
G1 X118.794224 Y144.862645
G1 X119.436461 Y145.107091
G1 X120.080996 Y145.319964
G1 X120.721991 Y145.517270
G1 X121.353607 Y145.715017
G1 X121.970006 Y145.929211
G1 X122.565350 Y146.175861
G1 X123.133801 Y146.470974
G1 X123.622323 Y146.794782
G1 X124.079408 Y147.183897
G1 X124.463967 Y147.604430
G1 X124.785102 Y148.049798
G1 X125.076568 Y148.562241
G1 X125.115000 Y148.640000
G1 X125.209109 Y148.865679
G1 X125.305346 Y149.154672
G1 X125.402874 Y149.500486
G1 X125.500857 Y149.896629
G1 X125.598458 Y150.336611
G1 X125.694843 Y150.813939
G1 X125.789174 Y151.322122
G1 X125.880615 Y151.854669
G1 X125.968331 Y152.405087
G1 X126.051485 Y152.966886
G1 X126.129241 Y153.533572
G1 X126.207540 Y154.154827
G1 X126.277183 Y154.765501
G1 X126.337057 Y155.356954
G1 X126.386049 Y155.920547
G1 X126.423046 Y156.447639
G1 X126.446936 Y156.929589
G1 X126.456605 Y157.357758
G1 X126.450940 Y157.723504
G1 X126.428829 Y158.018189
G1 X126.415000 Y158.115000
G1 X126.320290 Y158.550009
G1 X126.179778 Y159.026569
G1 X126.003465 Y159.538280
G1 X125.801353 Y160.078744
G1 X125.583442 Y160.641563
G1 X125.359734 Y161.220337
G1 X125.140229 Y161.808669
G1 X124.934929 Y162.400160
G1 X124.753834 Y162.988411
G1 X124.606945 Y163.567024
G1 X124.504264 Y164.129600
G1 X124.455792 Y164.669740
G1 X124.455000 Y164.695000
G1 X124.384009 Y164.928473
G1 X124.254950 Y165.128970
G1 X124.078252 Y165.300409
G1 X123.864340 Y165.446708
G1 X123.623641 Y165.571785
G1 X123.366583 Y165.679558
G1 X123.103590 Y165.773944
G1 X122.845091 Y165.858863
G1 X122.601511 Y165.938233
G1 X122.383278 Y166.015970
G1 X122.200819 Y166.095994
G1 X122.064559 Y166.182222
G1 X121.984925 Y166.278572
G1 X121.975000 Y166.305000
G1 X121.904427 Y166.619487
G1 X121.846709 Y167.009171
G1 X121.800935 Y167.467560
G1 X121.766189 Y167.988162
G1 X121.741560 Y168.564482
G1 X121.726133 Y169.190029
G1 X121.718996 Y169.858309
G1 X121.719235 Y170.562829
G1 X121.725937 Y171.297097
G1 X121.738188 Y172.054618
G1 X121.755075 Y172.828902
G1 X121.775685 Y173.613453
G1 X121.801566 Y174.480571
G1 X121.832511 Y175.429362
G1 X121.864479 Y176.361722
G1 X121.895854 Y177.266147
G1 X121.925018 Y178.131135
G1 X121.950352 Y178.945184
G1 X121.970238 Y179.696790
G1 X121.982228 Y180.316203
G1 X121.987163 Y180.865863
G1 X121.985000 Y181.265000
G1 X121.939181 Y183.983656
G1 X121.855610 Y186.645141
G1 X121.718715 Y189.029652
G1 X121.522035 Y191.179789
G1 X121.293663 Y192.951316
G1 X120.994312 Y194.723827
G1 X120.651607 Y196.340705
G1 X120.274764 Y197.818755
G1 X119.829519 Y199.307802
G1 X119.309852 Y200.810964
G1 X119.245000 Y200.985000
G1 X118.815501 Y202.022451
G1 X118.324282 Y203.044980
G1 X117.787694 Y204.058849
G1 X117.222086 Y205.070317
G1 X116.643808 Y206.085645
G1 X116.069209 Y207.111093
G1 X115.514640 Y208.152921
G1 X114.996451 Y209.217391
G1 X114.530991 Y210.310761
G1 X114.150000 Y211.390000
G1 X113.689505 Y212.914793
G1 X113.240983 Y214.512729
G1 X112.804704 Y216.177330
G1 X112.380940 Y217.902117
G1 X111.969962 Y219.680611
G1 X111.572042 Y221.506332
G1 X111.187450 Y223.372801
G1 X110.816457 Y225.273540
G1 X110.459336 Y227.202069
G1 X110.116357 Y229.151910
G1 X109.787791 Y231.116583
G1 X109.473910 Y233.089610
G1 X109.174984 Y235.064511
G1 X108.891286 Y237.034807
G1 X108.623086 Y238.994019
G1 X108.370655 Y240.935669
G1 X108.134265 Y242.853277
G1 X107.914187 Y244.740364
G1 X107.710692 Y246.590451
G1 X107.524051 Y248.397059
G1 X107.354536 Y250.153709
G1 X107.202418 Y251.853922
G1 X107.067967 Y253.491219
G1 X107.010000 Y254.250000
G1 X106.974669 Y255.223241
G1 X106.989582 Y256.201358
G1 X107.013377 Y257.179047
G1 X107.010000 Y257.995000
G1 X107.328803 Y258.025983
G1 X107.617898 Y257.989526
G1 X107.873475 Y257.888042
G1 X108.091728 Y257.723941
G1 X108.268846 Y257.499637
G1 X108.401023 Y257.217541
G1 X108.420000 Y257.160000
G1 X108.479260 Y256.921372
G1 X108.531121 Y256.609057
G1 X108.576457 Y256.230406
G1 X108.616143 Y255.792768
G1 X108.651052 Y255.303496
G1 X108.682058 Y254.769938
G1 X108.710035 Y254.199447
G1 X108.735856 Y253.599373
G1 X108.760397 Y252.977066
G1 X108.784531 Y252.339876
G1 X108.809131 Y251.695156
G1 X108.837773 Y250.986037
G1 X108.872541 Y250.217431
G1 X108.912228 Y249.473420
G1 X108.958381 Y248.767027
G1 X109.012549 Y248.111274
G1 X109.076280 Y247.519183
G1 X109.143818 Y247.047120
G1 X109.221703 Y246.648216
G1 X109.302463 Y246.357293
G1 X109.384872 Y246.158487
G1 X109.476520 Y246.027930
G1 X109.510000 Y246
G1 X109.673051 Y245.934343
G1 X109.865998 Y245.930154
G1 X110.074630 Y245.978851
G1 X110.284736 Y246.071849
G1 X110.482105 Y246.200564
G1 X110.652526 Y246.356413
G1 X110.760000 Y246.495000
G1 X110.822178 Y246.635829
G1 X110.876857 Y246.847158
G1 X110.924442 Y247.122173
G1 X110.965337 Y247.454063
G1 X110.999947 Y247.836015
G1 X111.028675 Y248.261217
G1 X111.051926 Y248.722855
G1 X111.070104 Y249.214118
G1 X111.083613 Y249.728193
G1 X111.092857 Y250.258267
G1 X111.098241 Y250.797528
G1 X111.100186 Y251.393196
G1 X111.098137 Y252.040927
G1 X111.092395 Y252.669094
G1 X111.083676 Y253.265629
G1 X111.072694 Y253.818463
G1 X111.060168 Y254.315526
G1 X111.046812 Y254.744751
G1 X111.034553 Y255.065932
G1 X111.025000 Y255.270000
G1 X111.012263 Y255.514108
G1 X110.994747 Y255.822139
G1 X110.972876 Y256.185222
G1 X110.947078 Y256.594485
G1 X110.917779 Y257.041058
G1 X110.885406 Y257.516068
G1 X110.850384 Y258.010646
G1 X110.813139 Y258.515919
G1 X110.770113 Y259.073486
G1 X110.720952 Y259.675267
G1 X110.670603 Y260.249717
G1 X110.619823 Y260.781119
G1 X110.569366 Y261.253758
G1 X110.524412 Y261.619213
G1 X110.480917 Y261.911307
G1 X110.443119 Y262.103252
G1 X110.425000 Y262.170000
G1 X110.317386 Y262.458525
G1 X110.199142 Y262.677166
G1 X110.071030 Y262.831901
G1 X109.933816 Y262.928703
G1 X109.788262 Y262.973547
G1 X109.635133 Y262.972410
G1 X109.475192 Y262.931265
G1 X109.309203 Y262.856088
G1 X109.137930 Y262.752855
G1 X108.962137 Y262.627540
G1 X108.782588 Y262.486119
G1 X108.600047 Y262.334566
G1 X108.396706 Y262.163288
G1 X108.171131 Y261.978564
G1 X107.944875 Y261.807965
G1 X107.719294 Y261.662073
G1 X107.495739 Y261.551476
G1 X107.275564 Y261.486757
G1 X107.230000 Y261.480000
G1 X106.838572 Y261.472589
G1 X106.451588 Y261.530235
G1 X106.072197 Y261.627188
G1 X105.703545 Y261.737694
G1 X105.348780 Y261.836003
G1 X105.011050 Y261.896362
G1 X104.755000 Y261.900000
G1 X104.537925 Y261.873910
G1 X104.258261 Y261.829875
G1 X103.924863 Y261.770775
G1 X103.546584 Y261.699491
G1 X103.132280 Y261.618903
G1 X102.690806 Y261.531893
G1 X102.231016 Y261.441339
G1 X101.761766 Y261.350123
G1 X101.245232 Y261.252459
G1 X100.690263 Y261.152705
G1 X100.164355 Y261.065941
G1 X99.683194 Y260.997270
G1 X99.262466 Y260.951796
G1 X98.945629 Y260.934879
G1 X98.722104 Y260.943021
G1 X98.569165 Y260.976541
G1 X98.515000 Y261.010000
G1 X98.488117 Y261.071374
G1 X98.459076 Y261.197864
G1 X98.428120 Y261.380193
G1 X98.395490 Y261.609086
G1 X98.361429 Y261.875266
G1 X98.326178 Y262.169455
G1 X98.289980 Y262.482379
G1 X98.253077 Y262.804759
G1 X98.211958 Y263.159229
G1 X98.166464 Y263.534662
G1 X98.121111 Y263.878987
G1 X98.076328 Y264.175767
G1 X98.032543 Y264.408571
G1 X98.010000 Y264.500000
G1 X98.329839 Y264.179357
G1 X98.639308 Y263.922252
G1 X98.938921 Y263.724083
G1 X99.229193 Y263.580249
G1 X99.510639 Y263.486149
G1 X99.783773 Y263.437181
G1 X100.049110 Y263.428744
G1 X100.307164 Y263.456236
G1 X100.558450 Y263.515057
G1 X100.803483 Y263.600604
G1 X101.042777 Y263.708277
G1 X101.276847 Y263.833473
G1 X101.506208 Y263.971592
G1 X101.731374 Y264.118032
G1 X101.974825 Y264.283236
G1 X102.238296 Y264.462848
G1 X102.523936 Y264.648424
G1 X102.806375 Y264.810910
G1 X103.086827 Y264.939455
G1 X103.366506 Y265.023210
G1 X103.646624 Y265.051326
G1 X103.755000 Y265.045000
G1 X103.880745 Y265.002857
G1 X104.038987 Y264.905401
G1 X104.226758 Y264.762417
G1 X104.441090 Y264.583690
G1 X104.679014 Y264.379005
G1 X104.937563 Y264.158147
G1 X105.213769 Y263.930901
G1 X105.504662 Y263.707053
G1 X105.807274 Y263.496386
G1 X106.118638 Y263.308688
G1 X106.435785 Y263.153741
G1 X106.755747 Y263.041332
G1 X107.075556 Y262.981245
G1 X107.392243 Y262.983266
G1 X107.702840 Y263.057180
G1 X107.977418 Y263.194994
G1 X108.015000 Y263.220000
G1 X108.207498 Y263.393988
G1 X108.342414 Y263.606069
G1 X108.426566 Y263.851638
G1 X108.466771 Y264.126091
G1 X108.469844 Y264.424822
G1 X108.442603 Y264.743227
G1 X108.391865 Y265.076698
G1 X108.324446 Y265.420633
G1 X108.247163 Y265.770425
G1 X108.158896 Y266.156465
G1 X108.068372 Y266.575545
G1 X107.996442 Y266.980882
G1 X107.955182 Y267.364321
G1 X107.956669 Y267.717701
G1 X108.005000 Y268.005000
G1 X107.640579 Y268.077138
G1 X107.337948 Y268.109178
G1 X107.091697 Y268.105182
G1 X106.896415 Y268.069211
G1 X106.746689 Y268.005327
G1 X106.637108 Y267.917590
G1 X106.562262 Y267.810061
G1 X106.516740 Y267.686802
G1 X106.495129 Y267.551874
G1 X106.492018 Y267.409338
G1 X106.501998 Y267.263255
G1 X106.519655 Y267.117687
G1 X106.541488 Y266.963002
G1 X106.558861 Y266.819260
G1 X106.564573 Y266.691865
G1 X106.551420 Y266.586223
G1 X106.512201 Y266.507739
G1 X106.505000 Y266.500000
G1 X106.418535 Y266.462180
G1 X106.281423 Y266.461426
G1 X106.100299 Y266.490003
G1 X105.881798 Y266.540178
G1 X105.632555 Y266.604219
G1 X105.359205 Y266.674391
G1 X105.068383 Y266.742960
G1 X104.766724 Y266.802194
G1 X104.460862 Y266.844360
G1 X104.157433 Y266.861722
G1 X103.863072 Y266.846549
G1 X103.584413 Y266.791107
G1 X103.328091 Y266.687661
G1 X103.100741 Y266.528479
G1 X102.908999 Y266.305828
G1 X102.771170 Y266.041833
G1 X102.755000 Y266
G1 X102.679432 Y266.448542
G1 X102.575690 Y266.825636
G1 X102.446131 Y267.135159
G1 X102.293112 Y267.380986
G1 X102.118991 Y267.566993
G1 X101.926125 Y267.697057
G1 X101.716872 Y267.775052
G1 X101.493590 Y267.804854
G1 X101.258636 Y267.790340
G1 X101.014367 Y267.735385
G1 X100.763140 Y267.643866
G1 X100.507315 Y267.519657
G1 X100.249247 Y267.366635
G1 X99.991294 Y267.188675
G1 X99.735814 Y266.989654
G1 X99.485164 Y266.773448
G1 X99.241702 Y266.543931
G1 X99.007786 Y266.304980
G1 X98.785772 Y266.060471
G1 X98.578018 Y265.814280
G1 X98.386883 Y265.570282
G1 X98.214722 Y265.332353
G1 X98.063894 Y265.104369
G1 X98.000000 Y265
G1 X97.822053 Y265.084322
G1 X97.677782 Y265.225403
G1 X97.565049 Y265.415373
G1 X97.481715 Y265.646358
G1 X97.425641 Y265.910489
G1 X97.394689 Y266.199893
G1 X97.386718 Y266.506698
G1 X97.399592 Y266.823032
G1 X97.431169 Y267.141025
G1 X97.479312 Y267.452803
G1 X97.541883 Y267.750497
G1 X97.616740 Y268.026233
G1 X97.701747 Y268.272140
G1 X97.794764 Y268.480347
G1 X97.893652 Y268.642982
G1 X97.996273 Y268.752173
G1 X98.000000 Y268.755000
G1 X98.299704 Y268.935568
G1 X98.655961 Y269.075847
G1 X99.059218 Y269.181495
G1 X99.499928 Y269.258170
G1 X99.968538 Y269.311529
G1 X100.455500 Y269.347232
G1 X100.951262 Y269.370935
G1 X101.446274 Y269.388298
G1 X101.978524 Y269.406825
G1 X102.485600 Y269.432056
G1 X102.954790 Y269.471523
G1 X103.373383 Y269.532755
G1 X103.655000 Y269.600000
G1 X103.935059 Y269.723373
G1 X104.198195 Y269.907770
G1 X104.451073 Y270.133271
G1 X104.700357 Y270.379956
G1 X104.952710 Y270.627902
G1 X105.214798 Y270.857189
G1 X105.493284 Y271.047897
G1 X105.635000 Y271.120000
G1 X106.044661 Y271.283354
G1 X106.416925 Y271.393864
G1 X106.754759 Y271.463080
G1 X107.061133 Y271.502558
G1 X107.339015 Y271.523849
G1 X107.591372 Y271.538506
G1 X107.821173 Y271.558083
G1 X108.031387 Y271.594131
G1 X108.224981 Y271.658205
G1 X108.404924 Y271.761857
G1 X108.574183 Y271.916640
G1 X108.735729 Y272.134106
G1 X108.878391 Y272.395920
G1 X109.019361 Y272.727766
G1 X109.147923 Y273.097520
G1 X109.278604 Y273.538847
G1 X109.370000 Y273.885000
G1 X109.501778 Y274.462295
G1 X109.623171 Y275.108304
G1 X109.734332 Y275.818820
G1 X109.835413 Y276.589640
G1 X109.926566 Y277.416559
G1 X110.007943 Y278.295371
G1 X110.079696 Y279.221872
G1 X110.141978 Y280.191857
G1 X110.194941 Y281.201120
G1 X110.238737 Y282.245457
G1 X110.273517 Y283.320664
G1 X110.299435 Y284.422534
G1 X110.316641 Y285.546864
G1 X110.325290 Y286.689447
G1 X110.325531 Y287.846080
G1 X110.317519 Y289.012558
G1 X110.301405 Y290.184675
G1 X110.277340 Y291.358226
G1 X110.241869 Y292.645771
G1 X110.197164 Y293.924368
G1 X110.143430 Y295.188418
G1 X110.080867 Y296.432326
G1 X110.009679 Y297.650495
G1 X109.930069 Y298.837329
G1 X109.842238 Y299.987229
G1 X109.746390 Y301.094601
G1 X109.642726 Y302.153846
G1 X109.531450 Y303.159368
G1 X109.412763 Y304.105571
G1 X109.286869 Y304.986858
G1 X109.153970 Y305.797631
G1 X109.014268 Y306.532295
G1 X108.885000 Y307.115000
G1 X108.643268 Y307.980426
G1 X108.336565 Y308.859602
G1 X107.977988 Y309.748425
G1 X107.580637 Y310.642794
G1 X107.157608 Y311.538605
G1 X106.722001 Y312.431757
G1 X106.243937 Y313.406254
G1 X105.783935 Y314.367107
G1 X105.359428 Y315.308857
G1 X105.130000 Y315.860000
G1 X104.755541 Y316.909337
G1 X104.437058 Y317.974792
G1 X104.136715 Y319.042464
G1 X103.782134 Y320.202870
G1 X103.435296 Y321.138056
G1 X103.090197 Y321.886683
G1 X102.716086 Y322.542887
G1 X102.315587 Y323.115444
G1 X102.010000 Y323.485000
G1 X102.456868 Y323.462261
G1 X102.960255 Y323.486559
G1 X103.512471 Y323.555412
G1 X104.105827 Y323.666336
G1 X104.732637 Y323.816846
G1 X105.385209 Y324.004460
G1 X106.055856 Y324.226693
G1 X106.736889 Y324.481062
G1 X107.420619 Y324.765082
G1 X108.099358 Y325.076271
G1 X108.765417 Y325.412145
G1 X109.411106 Y325.770219
G1 X110.028738 Y326.148011
G1 X110.610623 Y326.543036
G1 X111.149074 Y326.952810
G1 X111.636400 Y327.374851
G1 X112.064914 Y327.806674
G1 X112.426926 Y328.245795
G1 X112.714748 Y328.689731
G1 X112.905555 Y329.095398
G1 X113.022917 Y329.501125
G1 X113.055000 Y329.735000
G1 X113.059146 Y330.302094
G1 X112.998273 Y330.883656
G1 X112.893889 Y331.476397
G1 X112.767503 Y332.077031
G1 X112.640623 Y332.682268
G1 X112.534756 Y333.288822
G1 X112.471412 Y333.893404
G1 X112.472098 Y334.492726
G1 X112.546383 Y335.030234
G1 X112.688858 Y335.510669
G1 X112.890885 Y335.939029
G1 X113.055000 Y336.200000
G1 X113.263989 Y336.465805
G1 X113.467925 Y336.658551
G1 X113.667219 Y336.788021
G1 X113.862285 Y336.863996
G1 X114.053535 Y336.896258
G1 X114.241382 Y336.894591
G1 X114.426237 Y336.868776
G1 X114.608513 Y336.828595
G1 X114.788623 Y336.783831
G1 X114.984733 Y336.740972
G1 X115.179271 Y336.717424
G1 X115.372784 Y336.726207
G1 X115.540000 Y336.770000
G1 X115.603031 Y336.807586
G1 X115.714748 Y336.889549
G1 X115.868783 Y337.010517
G1 X116.058768 Y337.165116
G1 X116.278335 Y337.347975
G1 X116.521117 Y337.553719
G1 X116.780745 Y337.776975
G1 X117.050853 Y338.012371
G1 X117.325072 Y338.254534
G1 X117.623861 Y338.522316
G1 X117.939260 Y338.810289
G1 X118.229818 Y339.082131
G1 X118.484256 Y339.328322
G1 X118.691291 Y339.539346
G1 X118.828879 Y339.692657
G1 X118.909493 Y339.801886
G1 X118.925000 Y339.835000
G1 X119.055144 Y340.332430
G1 X119.123540 Y340.785369
G1 X119.134162 Y341.194960
G1 X119.090985 Y341.562349
G1 X118.997981 Y341.888680
G1 X118.859126 Y342.175098
G1 X118.678392 Y342.422748
G1 X118.459755 Y342.632774
G1 X118.207188 Y342.806321
G1 X117.924664 Y342.944534
G1 X117.616158 Y343.048557
G1 X117.285644 Y343.119535
G1 X116.937096 Y343.158613
G1 X116.574487 Y343.166935
G1 X116.201792 Y343.145646
G1 X115.822985 Y343.095890
G1 X115.442039 Y343.018813
G1 X115.062929 Y342.915559
G1 X114.689628 Y342.787273
G1 X114.326110 Y342.635099
G1 X113.976350 Y342.460182
G1 X113.860000 Y342.395000
G1 X113.567099 Y342.183790
G1 X113.332160 Y341.938462
G1 X113.136501 Y341.672743
G1 X112.961441 Y341.400364
G1 X112.788299 Y341.135052
G1 X112.598392 Y340.890536
G1 X112.373038 Y340.680545
G1 X112.121692 Y340.531156
G1 X112.020000 Y340.490000
G1 X112.038787 Y341.144191
G1 X112.123563 Y341.764827
G1 X112.266013 Y342.355927
G1 X112.457826 Y342.921512
G1 X112.690687 Y343.465606
G1 X112.956284 Y343.992227
G1 X113.246305 Y344.505398
G1 X113.552435 Y345.009140
G1 X113.866363 Y345.507473
G1 X114.210768 Y346.054192
G1 X114.575686 Y346.660033
G1 X114.911735 Y347.277443
G1 X115.095000 Y347.660000
G1 X115.271478 Y348.055717
G1 X115.476392 Y348.520075
G1 X115.705347 Y349.044978
G1 X115.953948 Y349.622334
G1 X116.217803 Y350.244047
G1 X116.492516 Y350.902024
G1 X116.773694 Y351.588170
G1 X117.056943 Y352.294391
G1 X117.337868 Y353.012594
G1 X117.612076 Y353.734684
G1 X117.875172 Y354.452566
G1 X118.122762 Y355.158147
G1 X118.350453 Y355.843333
G1 X118.553850 Y356.500029
G1 X118.728559 Y357.120142
G1 X118.870185 Y357.695576
G1 X118.974336 Y358.218239
G1 X119.036617 Y358.680035
G1 X119.053204 Y359.040221
G1 X119.045000 Y359.210000
G1 X119.003460 Y359.327875
G1 X118.909733 Y359.408942
G1 X118.772807 Y359.462685
G1 X118.601672 Y359.498593
G1 X118.405316 Y359.526150
G1 X118.192729 Y359.554844
G1 X117.972898 Y359.594160
G1 X117.754814 Y359.653585
G1 X117.547465 Y359.742607
G1 X117.359840 Y359.870709
G1 X117.200928 Y360.047381
G1 X117.079717 Y360.282106
G1 X117.075000 Y360.295000
G1 X116.988175 Y360.621825
G1 X116.936809 Y361.001442
G1 X116.914098 Y361.424126
G1 X116.913238 Y361.880149
G1 X116.927426 Y362.359786
G1 X116.949855 Y362.853308
G1 X116.973724 Y363.350991
G1 X116.993521 Y363.891637
G1 X116.997769 Y364.412602
G1 X116.977413 Y364.900938
G1 X116.950000 Y365.170000
G1 X116.812268 Y365.972443
G1 X116.616904 Y366.803156
G1 X116.382435 Y367.648669
G1 X116.127386 Y368.495514
G1 X115.870283 Y369.330221
G1 X115.629651 Y370.139319
G1 X115.424016 Y370.909341
G1 X115.283034 Y371.564116
G1 X115.204965 Y372.113165
G1 X115.190000 Y372.310000
G1 X115.130014 Y374.048491
G1 X115.127320 Y375.805056
G1 X115.163450 Y377.580932
G1 X115.219940 Y379.377358
G1 X115.278322 Y381.195572
G1 X115.320130 Y383.036812
G1 X115.326898 Y384.902318
G1 X115.280159 Y386.793326
G1 X115.260000 Y387.230000
G1 X115.246131 Y388.213975
G1 X115.297178 Y389.205067
G1 X115.403393 Y390.202928
G1 X115.555025 Y391.207207
G1 X115.742328 Y392.217556
G1 X115.955551 Y393.233625
G1 X116.184948 Y394.255066
G1 X116.420767 Y395.281528
G1 X116.675954 Y396.416020
G1 X116.914142 Y397.555702
G1 X117.122355 Y398.700108
G1 X117.287619 Y399.848774
G1 X117.396959 Y401.001235
G1 X117.437397 Y402.157026
G1 X117.403451 Y403.210243
G1 X117.365000 Y403.670000
G1 X117.291235 Y404.036171
G1 X117.150074 Y404.425331
G1 X116.954898 Y404.833463
G1 X116.719086 Y405.256548
G1 X116.456018 Y405.690568
G1 X116.179074 Y406.131503
G1 X115.901634 Y406.575335
G1 X115.611846 Y407.062101
G1 X115.355455 Y407.542162
G1 X115.150270 Y408.010169
G1 X115.060000 Y408.280000
G1 X114.939076 Y408.795393
G1 X114.856062 Y409.365078
G1 X114.808929 Y409.984469
G1 X114.795644 Y410.648980
G1 X114.814177 Y411.354026
G1 X114.862498 Y412.095020
G1 X114.938576 Y412.867378
G1 X115.040380 Y413.666513
G1 X115.165879 Y414.487840
G1 X115.313043 Y415.326774
G1 X115.479841 Y416.178728
G1 X115.664242 Y417.039117
G1 X115.864216 Y417.903356
G1 X116.077732 Y418.766858
G1 X116.302758 Y419.625038
G1 X116.537266 Y420.473311
G1 X116.779222 Y421.307090
G1 X117.026598 Y422.121791
G1 X117.277362 Y422.912826
G1 X117.529484 Y423.675612
G1 X117.780932 Y424.405562
G1 X118.029677 Y425.098090
G1 X118.273687 Y425.748611
G1 X118.510932 Y426.352539
G1 X118.739380 Y426.905288
G1 X118.920000 Y427.320000
G1 X119.455584 Y428.426492
G1 X120.046726 Y429.495771
G1 X120.681966 Y430.533888
G1 X121.349841 Y431.546893
G1 X122.038890 Y432.540837
G1 X122.737649 Y433.521770
G1 X123.434659 Y434.495743
G1 X124.118456 Y435.468808
G1 X124.777578 Y436.447013
G1 X125.400565 Y437.436411
G1 X125.950000 Y438.395000
G1 X126.107367 Y438.741541
G1 X126.251282 Y439.155842
G1 X126.386597 Y439.619620
G1 X126.518167 Y440.114592
G1 X126.650845 Y440.622474
G1 X126.803865 Y441.174236
G1 X126.970561 Y441.695163
G1 X127.157391 Y442.160920
G1 X127.300000 Y442.435000
G1 X127.435928 Y442.623808
G1 X127.632373 Y442.846875
G1 X127.874527 Y443.098492
G1 X128.147580 Y443.372950
G1 X128.436724 Y443.664537
G1 X128.727151 Y443.967546
G1 X129.004051 Y444.276267
G1 X129.252616 Y444.584989
G1 X129.458037 Y444.888004
G1 X129.605505 Y445.179602
G1 X129.676817 Y445.429980
G1 X129.676870 Y445.661913
G1 X129.605719 Y445.853147
G1 X129.505000 Y445.980000
G1 X129.408708 Y446.024244
G1 X129.269763 Y446.027353
G1 X129.099147 Y446.005411
G1 X128.907840 Y445.974503
G1 X128.706824 Y445.950712
G1 X128.507078 Y445.950125
G1 X128.319584 Y445.988826
G1 X128.155323 Y446.082898
G1 X128.035395 Y446.230004
G1 X127.957849 Y446.425151
G1 X127.918763 Y446.661217
G1 X127.914405 Y446.960198
G1 X127.944496 Y447.292334
G1 X128.010636 Y447.687228
G1 X128.110000 Y448.125000
G1 X128.253656 Y448.555544
G1 X128.464946 Y449.000349
G1 X128.730712 Y449.454615
G1 X129.037793 Y449.913539
G1 X129.373031 Y450.372321
G1 X129.723268 Y450.826157
G1 X130.075344 Y451.270248
G1 X130.416101 Y451.699790
G1 X130.732380 Y452.109983
G1 X131.000000 Y452.480000
G1 X131.592360 Y453.298803
G1 X132.178661 Y454.058852
G1 X132.755982 Y454.799502
G1 X133.321406 Y455.560106
G1 X133.822644 Y456.301994
G1 X134.265843 Y457.043851
G1 X134.500000 Y457.480000
G1 X135.000000 Y458.480000
G1 X135.791838 Y459.015804
G1 X136.554409 Y459.614136
G1 X137.296458 Y460.260999
G1 X138.026729 Y460.942397
G1 X138.753968 Y461.644334
G1 X139.486919 Y462.352813
G1 X140.234328 Y463.053838
G1 X141.004938 Y463.733413
G1 X141.807495 Y464.377541
G1 X142.650744 Y464.972227
G1 X143.460004 Y465.458168
G1 X143.500000 Y465.480000
G1 X144.160906 Y465.805369
G1 X144.880634 Y466.105533
G1 X145.644781 Y466.387969
G1 X146.438941 Y466.660153
G1 X147.248710 Y466.929560
G1 X148.059682 Y467.203667
G1 X148.857452 Y467.489949
G1 X149.627617 Y467.795883
G1 X150.355770 Y468.128944
G1 X151.000000 Y468.480000
G1 X151.746313 Y468.514395
G1 X152.559001 Y468.560279
G1 X153.428848 Y468.618439
G1 X154.346639 Y468.689663
G1 X155.303157 Y468.774737
G1 X156.289188 Y468.874449
G1 X157.295516 Y468.989585
G1 X158.312926 Y469.120934
G1 X159.332201 Y469.269281
G1 X160.344126 Y469.435414
G1 X161.339487 Y469.620121
G1 X162.309066 Y469.824187
G1 X163.243650 Y470.048401
G1 X164.134021 Y470.293549
G1 X164.970966 Y470.560419
G1 X165.745267 Y470.849797
G1 X166.387063 Y471.133063
G1 X166.855000 Y471.375000
G1 X167.932494 Y471.962611
G1 X168.968529 Y472.498599
G1 X169.971337 Y472.982439
G1 X170.949148 Y473.413611
G1 X171.910192 Y473.791590
G1 X172.862700 Y474.115853
G1 X173.814904 Y474.385878
G1 X174.775033 Y474.601143
G1 X175.751319 Y474.761123
G1 X176.751992 Y474.865296
G1 X177.785284 Y474.913140
G1 X178.859423 Y474.904131
G1 X179.982642 Y474.837746
G1 X181.053266 Y474.727168
G1 X181.875000 Y474.615000
G1 X182.911553 Y474.446077
G1 X183.884498 Y474.261373
G1 X184.799768 Y474.061174
G1 X185.663296 Y473.845768
G1 X186.481016 Y473.615441
G1 X187.258860 Y473.370481
G1 X188.002763 Y473.111175
G1 X188.718656 Y472.837808
G1 X189.412473 Y472.550669
G1 X190.090147 Y472.250045
G1 X190.757612 Y471.936221
G1 X191.420801 Y471.609485
G1 X192.085646 Y471.270125
G1 X192.758080 Y470.918426
G1 X193.444038 Y470.554677
G1 X194.149453 Y470.179163
G1 X194.880256 Y469.792172
G1 X195.642382 Y469.393991
G1 X196.441764 Y468.984906
G1 X197.284334 Y468.565205
G1 X198.176026 Y468.135175
G1 X198.495000 Y467.985000
G1 X198.500000 Y468

; border: ''

; delta: 0
M5
G0 X158 Y458.500000
; Cut at F1000 mm/min, power S850
M4
G1 X158.019570 Y458.256126
G1 X158.087808 Y458.051438
G1 X158.185927 Y457.882311
G1 X158.295136 Y457.745121
G1 X158.396646 Y457.636244
